; START 5_axis G-code
; We assume that machine is not stopped from planar construction


G90 ; use absolute coordinates

Z60.750

T0 ; Pick up Tool 1
G0 Z80;

M302 P1 ; Allow cold extrusion



M104 S225 ; set extruder temp
M109 S225 ; wait for extruder temp
G21 ; set units to millimeters

G90 ; use absolute coordinates
M83 ; use relative distances for extrusion

M98 P"/macros/wiping.g" ;move the nozzle to centre

G0 u0 v0 ;
M98 P"/macros/move_to_mid.g" ;move the nozzle to centre


G1 E1.0 ; initial extrusion


G1 F600 x145.23 y82.05 z24.61 u89.95 v89.95 E0
G1 F600 x145.22 y82.07 z4.61 u89.95 v89.95 E0
G1 F9000 x144.75 y52.94 z24.34 u89.95 v0 E0.047733
G1 F60.098725 x144.26 y53.07 z24.02 u89.95 v0 E0.047733
G1 F60.63636 x143.77 y53.2 z23.69 u89.95 v0 E0.047733
G1 F60.057169 x143.29 y53.34 z23.36 u89.95 v0 E0.047733
G1 F60.098725 x142.8 y53.47 z23.04 u89.95 v0 E0.047733
G1 F59.832269 x142.32 y53.6 z22.71 u89.95 v0 E0.047733
G1 F60.63636 x141.83 y53.73 z22.38 u89.95 v0 E0.047733
G1 F60.098725 x141.34 y53.86 z22.06 u89.95 v0 E0.047733
G1 F9000 x140.84 y79.12 z3.43 u89.95 v89.95 E0.047733
G1 F59.287342 x140.36 y78.8 z3.3 u89.95 v89.95 E0.047733
G1 F60.85829 x139.87 y78.47 z3.16 u89.95 v89.95 E0.047733
G1 F60.63636 x139.38 y78.14 z3.03 u89.95 v89.95 E0.047733
G1 F59.287342 x138.9 y77.82 z2.9 u89.95 v89.95 E0.047733
G1 F60.63636 x138.41 y77.49 z2.77 u89.95 v89.95 E0.047733
G1 F59.832269 x137.93 y77.16 z2.64 u89.95 v89.95 E0.047733
G1 F60.098725 x137.44 y76.84 z2.51 u89.95 v89.95 E0.047733
G1 F60.85829 x136.95 y76.51 z2.37 u89.95 v89.95 E0.047733
G1 F59.832269 x136.47 y76.18 z2.24 u89.95 v89.95 E0.047733
G1 F60.098725 x135.98 y75.86 z2.11 u89.95 v89.95 E0.047733
G1 F60.63636 x135.49 y75.53 z1.98 u89.95 v89.95 E0.047733
G1 F59.832269 x135.01 y75.2 z1.85 u89.95 v89.95 E0.047733
G1 F60.63636 x134.52 y74.87 z1.72 u89.95 v89.95 E0.047733
G1 F59.514302 x134.04 y74.55 z1.58 u89.95 v89.95 E0.047733
G1 F60.63636 x133.55 y74.22 z1.45 u89.95 v89.95 E0.047733
G1 F60.63636 x133.06 y73.89 z1.32 u89.95 v89.95 E0.047733
G1 F59.287342 x132.58 y73.57 z1.19 u89.95 v89.95 E0.047733
G1 F60.63636 x132.09 y73.24 z1.06 u89.95 v89.95 E0.047733
G1 F59.832269 x131.61 y72.91 z0.93 u89.95 v89.95 E0.047733
G1 F60.098725 x131.12 y72.59 z0.8 u89.95 v89.95 E0.047733
G1 F60.85829 x130.63 y72.26 z0.66 u89.95 v89.95 E0.047733
G1 F59.832269 x130.15 y71.93 z0.53 u89.95 v89.95 E0.047733
G1 F60.098725 x129.66 y71.61 z0.4 u89.95 v89.95 E0.047733
G1 F59.832269 x129.18 y71.28 z0.27 u89.95 v89.95 E0.047733
G1 F60.63636 x128.69 y70.95 z0.14 u89.95 v89.95 E0.047733
G1 F60.63636 x128.2 y70.62 z0.01 u89.95 v89.95 E0.047733
G1 F59.514302 x127.72 y70.3 z-0.13 u89.95 v89.95 E0.047733
G1 F60.63636 x127.23 y69.97 z-0.26 u89.95 v89.95 E0.047733
G1 F60.63636 x126.74 y69.64 z-0.39 u89.95 v89.95 E0.047733
G1 F59.287342 x126.26 y69.32 z-0.52 u89.95 v89.95 E0.047733
G1 F60.63636 x125.77 y68.99 z-0.65 u89.95 v89.95 E0.047733
G1 F59.832269 x125.29 y68.66 z-0.78 u89.95 v89.95 E0.047733
G1 F60.322632 x124.8 y68.34 z-0.92 u89.95 v89.95 E0.047733
G1 F60.63636 x124.31 y68.01 z-1.05 u89.95 v89.95 E0.047733
G1 F59.832269 x123.83 y67.68 z-1.18 u89.95 v89.95 E0.047733
G1 F9000 x154.85 y58.74 z21.56 u0 v0 E0.047733
G1 F59.287342 x154.53 y58.87 z22.04 u0 v0 E0.047733
G1 F60.63636 x154.2 y59 z22.53 u0 v0 E0.047733
G1 F59.54293 x154.1 y59.04 z22.68 u0 v0 E0.014841
G1 F59.826159 x154.03 y59.15 z22.29 u0 v0 E0.032892
G1 F60.032222 x153.94 y59.31 z21.72 u0 v0 E0.047733
G1 F60.032222 x153.85 y59.47 z21.15 u0 v0 E0.047733
G1 F61.13661 x153.75 y59.63 z20.57 u0 v0 E0.047733
G1 F60.306075 x153.66 y59.8 z20 u0 v0 E0.047733
G1 F9000 x125.46 y66.07 z-2.53 u89.95 v89.95 E0.047733
G1 F61.250845 x126.04 y65.98 z-2.7 u89.95 v89.95 E0.047733
G1 F60.190047 x126.61 y65.88 z-2.86 u89.95 v89.95 E0.047733
G1 F60.032222 x127.18 y65.79 z-3.02 u89.95 v89.95 E0.047733
G1 F60.032222 x127.75 y65.7 z-3.18 u89.95 v89.95 E0.047733
G1 F60.190047 x128.32 y65.6 z-3.34 u89.95 v89.95 E0.047733
G1 F60.032222 x128.89 y65.51 z-3.5 u89.95 v89.95 E0.047733
G1 F60.306075 x129.46 y65.42 z-3.67 u89.95 v89.95 E0.047733
G1 F60.190047 x130.03 y65.32 z-3.83 u89.95 v89.95 E0.047733
G1 F60.032222 x130.6 y65.23 z-3.99 u89.95 v89.95 E0.047733
G1 F60.032222 x131.17 y65.14 z-4.15 u89.95 v89.95 E0.047733
G1 F60.190047 x131.74 y65.04 z-4.31 u89.95 v89.95 E0.047733
G1 F60.032222 x132.31 y64.95 z-4.47 u89.95 v89.95 E0.047733
G1 F60.306075 x132.88 y64.86 z-4.64 u89.95 v89.95 E0.047733
G1 F60.190047 x133.45 y64.76 z-4.8 u89.95 v89.95 E0.047733
G1 F60.032222 x134.02 y64.67 z-4.96 u89.95 v89.95 E0.047733
G1 F60.981235 x134.6 y64.58 z-5.12 u89.95 v89.95 E0.047733
G1 F60.032222 x135.17 y64.49 z-5.28 u89.95 v89.95 E0.047733
G1 F60.190047 x135.74 y64.39 z-5.44 u89.95 v89.95 E0.047733
G1 F60.306075 x136.31 y64.3 z-5.61 u89.95 v89.95 E0.047733
G1 F60.032222 x136.88 y64.21 z-5.77 u89.95 v89.95 E0.047733
G1 F60.190047 x137.45 y64.11 z-5.93 u89.95 v89.95 E0.047733
G1 F60.032222 x138.02 y64.02 z-6.09 u89.95 v89.95 E0.047733
G1 F60.032222 x138.59 y63.93 z-6.25 u89.95 v89.95 E0.047733
G1 F60.190047 x139.16 y63.83 z-6.41 u89.95 v89.95 E0.047733
G1 F60.306075 x139.73 y63.74 z-6.58 u89.95 v89.95 E0.047733
G1 F60.032222 x140.3 y63.65 z-6.74 u89.95 v89.95 E0.047733
G1 F60.190047 x140.87 y63.55 z-6.9 u89.95 v89.95 E0.047733
G1 F9000 x150.96 y50.34 z-3.46 u179.91 v179.91 E0.047733
G1 F60.032222 x150.87 y50.18 z-2.89 u179.91 v179.91 E0.047733
G1 F60.032222 x150.78 y50.02 z-2.32 u179.91 v179.91 E0.047733
G1 F60.190047 x150.68 y49.86 z-1.75 u179.91 v179.91 E0.047733
G1 F60.032222 x150.59 y49.7 z-1.18 u179.91 v179.91 E0.047733
G1 F60.032222 x150.5 y49.54 z-0.61 u179.91 v179.91 E0.047733
G1 F61.250845 x150.41 y49.37 z-0.03 u179.91 v179.91 E0.047733
G1 F58.523406 x150.35 y49.28 z0.3 u179.91 v179.91 E0.0284
G1 F59.046637 x150.55 y49.41 z0.3 u179.91 v179.91 E0.019333
G1 F60.057169 x151.05 y49.74 z0.3 u179.91 v179.91 E0.047733
G1 F60.611652 x151.55 y50.08 z0.3 u179.91 v179.91 E0.047733
G1 F60.057169 x152.05 y50.41 z0.3 u179.91 v179.91 E0.047733
G1 F60.891099 x152.56 y50.74 z0.3 u179.91 v179.91 E0.047733
G1 F60.057169 x153.06 y51.07 z0.3 u179.91 v179.91 E0.047733
G1 F60.611652 x153.56 y51.41 z0.3 u179.91 v179.91 E0.047733
G1 F60.057169 x154.06 y51.74 z0.3 u179.91 v179.91 E0.047733
G1 F60.057169 x154.56 y52.07 z0.3 u179.91 v179.91 E0.047733
G1 F60.057169 x155.06 y52.4 z0.3 u179.91 v179.91 E0.047733
G1 F60.057169 x155.56 y52.73 z0.3 u179.91 v179.91 E0.047733
G1 F60.611652 x156.06 y53.07 z0.3 u179.91 v179.91 E0.047733
G1 F60.065483 x156.56 y53.4 z0.29 u179.91 v179.91 E0.047733
G1 F60.057169 x157.06 y53.73 z0.29 u179.91 v179.91 E0.047733
G1 F60.057169 x157.56 y54.06 z0.29 u179.91 v179.91 E0.047733
G1 F9000 x145.21 y70.55 z-3.02 u89.95 v89.95 E0.047733
G1 F60.891099 x145.21 y71.06 z-2.69 u89.95 v89.95 E0.047733
G1 F60.611652 x145.21 y71.56 z-2.35 u89.95 v89.95 E0.047733
G1 F60.057169 x145.21 y72.06 z-2.02 u89.95 v89.95 E0.047733
G1 F60.057169 x145.21 y72.56 z-1.69 u89.95 v89.95 E0.047733
G1 F60.057169 x145.21 y73.06 z-1.36 u89.95 v89.95 E0.047733
G1 F60.057169 x145.21 y73.56 z-1.03 u89.95 v89.95 E0.047733
G1 F60.057169 x145.21 y74.06 z-0.7 u89.95 v89.95 E0.047733
G1 F60.611652 x145.21 y74.56 z-0.36 u89.95 v89.95 E0.047733
G1 F60.057169 x145.21 y75.06 z-0.03 u89.95 v89.95 E0.047733
G1 F60.057169 x145.21 y75.56 z0.3 u89.95 v89.95 E0.047733
G1 F60.057169 x145.21 y76.06 z0.63 u89.95 v89.95 E0.047733
G1 F60.057169 x145.21 y76.56 z0.96 u89.95 v89.95 E0.047733
G1 F60.057169 x145.21 y77.06 z1.29 u89.95 v89.95 E0.047733
G1 F60.611652 x145.21 y77.56 z1.63 u89.95 v89.95 E0.047733
G1 F60.065483 x145.22 y78.06 z1.96 u89.95 v89.95 E0.047733
G1 F60.057169 x145.22 y78.56 z2.29 u89.95 v89.95 E0.047733
G1 F60.057169 x145.22 y79.06 z2.62 u89.95 v89.95 E0.047733
G1 F60.057169 x145.22 y79.56 z2.95 u89.95 v89.95 E0.047733
G1 F60.057169 x145.22 y80.06 z3.28 u89.95 v89.95 E0.047733
G1 F60.611652 x145.22 y80.56 z3.62 u89.95 v89.95 E0.047733
G1 F60.057169 x145.22 y81.06 z3.95 u89.95 v89.95 E0.047733
G1 F60.891099 x145.22 y81.57 z4.28 u89.95 v89.95 E0.047733
G1 F2300 E-2.00 ;Filament Retraction!!
G1 F600 x145.23 y81.55 z24.28 u89.95 v89.95 E0
G1 F600 x145.23 y82.04 z21.98 u89.95 v89.95 E0
G1 F600 x145.22 y82.06 z1.98 u89.95 v89.95 E0
G1 F2100 E2.21 ;Filament (De)-Retraction!!
G1 F9000 x144.75 y55.57 z24.34 u89.95 v0 E0.047733
G1 F60.63636 x144.26 y55.7 z24.01 u89.95 v0 E0.047733
G1 F60.63636 x143.77 y55.83 z23.68 u89.95 v0 E0.047733
G1 F59.514302 x143.29 y55.97 z23.36 u89.95 v0 E0.047733
G1 F60.63636 x142.8 y56.1 z23.03 u89.95 v0 E0.047733
G1 F59.832269 x142.32 y56.23 z22.7 u89.95 v0 E0.047733
G1 F60.098725 x141.83 y56.36 z22.38 u89.95 v0 E0.047733
G1 F60.63636 x141.34 y56.49 z22.05 u89.95 v0 E0.047733
G1 F9000 x140.84 y79.12 z0.8 u89.95 v89.95 E0.047733
G1 F60.85829 x140.35 y78.79 z0.66 u89.95 v89.95 E0.047733
G1 F59.832269 x139.87 y78.46 z0.53 u89.95 v89.95 E0.047733
G1 F60.098725 x139.38 y78.14 z0.4 u89.95 v89.95 E0.047733
G1 F59.832269 x138.9 y77.81 z0.27 u89.95 v89.95 E0.047733
G1 F60.63636 x138.41 y77.48 z0.14 u89.95 v89.95 E0.047733
G1 F60.098725 x137.92 y77.16 z0.01 u89.95 v89.95 E0.047733
G1 F60.057169 x137.44 y76.83 z-0.13 u89.95 v89.95 E0.047733
G1 F60.63636 x136.95 y76.5 z-0.26 u89.95 v89.95 E0.047733
G1 F60.098725 x136.46 y76.18 z-0.39 u89.95 v89.95 E0.047733
G1 F59.832269 x135.98 y75.85 z-0.52 u89.95 v89.95 E0.047733
G1 F60.63636 x135.49 y75.52 z-0.65 u89.95 v89.95 E0.047733
G1 F59.287342 x135.01 y75.2 z-0.78 u89.95 v89.95 E0.047733
G1 F60.63636 x134.52 y74.87 z-0.91 u89.95 v89.95 E0.047733
G1 F60.85829 x134.03 y74.54 z-1.05 u89.95 v89.95 E0.047733
G1 F59.287342 x133.55 y74.22 z-1.18 u89.95 v89.95 E0.047733
G1 F60.63636 x133.06 y73.89 z-1.31 u89.95 v89.95 E0.047733
G1 F59.832269 x132.58 y73.56 z-1.44 u89.95 v89.95 E0.047733
G1 F60.63636 x132.09 y73.23 z-1.57 u89.95 v89.95 E0.047733
G1 F60.098725 x131.6 y72.91 z-1.7 u89.95 v89.95 E0.047733
G1 F60.057169 x131.12 y72.58 z-1.84 u89.95 v89.95 E0.047733
G1 F60.63636 x130.63 y72.25 z-1.97 u89.95 v89.95 E0.047733
G1 F59.287342 x130.15 y71.93 z-2.1 u89.95 v89.95 E0.047733
G1 F60.63636 x129.66 y71.6 z-2.23 u89.95 v89.95 E0.047733
G1 F60.63636 x129.17 y71.27 z-2.36 u89.95 v89.95 E0.047733
G1 F59.287342 x128.69 y70.95 z-2.49 u89.95 v89.95 E0.047733
G1 F60.85829 x128.2 y70.62 z-2.63 u89.95 v89.95 E0.047733
G1 F60.63636 x127.71 y70.29 z-2.76 u89.95 v89.95 E0.047733
G1 F59.287342 x127.23 y69.97 z-2.89 u89.95 v89.95 E0.047733
G1 F60.63636 x126.74 y69.64 z-3.02 u89.95 v89.95 E0.047733
G1 F59.832269 x126.26 y69.31 z-3.15 u89.95 v89.95 E0.047733
G1 F60.63636 x125.77 y68.98 z-3.28 u89.95 v89.95 E0.047733
G1 F9000 x156.16 y60.84 z19.61 u0 v0 E0.047733
G1 F60.63636 x155.83 y60.97 z20.1 u0 v0 E0.047733
G1 F60.63636 x155.5 y61.1 z20.59 u0 v0 E0.047733
G1 F59.832269 x155.17 y61.23 z21.07 u0 v0 E0.047733
G1 F60.322632 x154.85 y61.37 z21.56 u0 v0 E0.047733
G1 F59.832269 x154.52 y61.5 z22.04 u0 v0 E0.047733
G1 F60.63636 x154.19 y61.63 z22.53 u0 v0 E0.047733
G1 F59.54293 x154.09 y61.67 z22.68 u0 v0 E0.014841
G1 F59.597219 x154.03 y61.78 z22.29 u0 v0 E0.032892
G1 F60.190047 x153.93 y61.94 z21.72 u0 v0 E0.047733
G1 F60.032222 x153.84 y62.1 z21.15 u0 v0 E0.047733
G1 F60.981235 x153.75 y62.26 z20.57 u0 v0 E0.047733
G1 F60.463186 x153.65 y62.43 z20 u0 v0 E0.047733
G1 F60.032222 x153.56 y62.59 z19.43 u0 v0 E0.047733
G1 F60.032222 x153.47 y62.75 z18.86 u0 v0 E0.047733
G1 F60.190047 x153.37 y62.91 z18.29 u0 v0 E0.047733
G1 F60.032222 x153.28 y63.07 z17.72 u0 v0 E0.047733
G1 F60.032222 x153.19 y63.23 z17.15 u0 v0 E0.047733
G1 F9000 x128.32 y65.6 z-5.97 u89.95 v89.95 E0.047733
G1 F60.032222 x128.89 y65.51 z-6.13 u89.95 v89.95 E0.047733
G1 F60.463186 x129.46 y65.41 z-6.3 u89.95 v89.95 E0.047733
G1 F60.032222 x130.03 y65.32 z-6.46 u89.95 v89.95 E0.047733
G1 F60.032222 x130.6 y65.23 z-6.62 u89.95 v89.95 E0.047733
G1 F60.190047 x131.17 y65.13 z-6.78 u89.95 v89.95 E0.047733
G1 F60.032222 x131.74 y65.04 z-6.94 u89.95 v89.95 E0.047733
G1 F60.032222 x132.31 y64.95 z-7.1 u89.95 v89.95 E0.047733
G1 F60.463186 x132.88 y64.85 z-7.27 u89.95 v89.95 E0.047733
G1 F60.032222 x133.45 y64.76 z-7.43 u89.95 v89.95 E0.047733
G1 F60.032222 x134.02 y64.67 z-7.59 u89.95 v89.95 E0.047733
G1 F60.190047 x134.59 y64.57 z-7.75 u89.95 v89.95 E0.047733
G1 F9000 x154.63 y65.33 z-7.07 u-90 v0 E0.047733
G1 F60.032222 x154.06 y65.49 z-6.98 u-90 v0 E0.047733
G1 F60.032222 x153.49 y65.65 z-6.89 u-90 v0 E0.047733
G1 F60.190047 x152.92 y65.81 z-6.79 u-90 v0 E0.047733
G1 F60.032222 x152.35 y65.97 z-6.7 u-90 v0 E0.047733
G1 F60.032222 x151.78 y66.13 z-6.61 u-90 v0 E0.047733
G1 F61.13661 x151.2 y66.29 z-6.51 u-90 v0 E0.047733
G1 F60.032222 x150.63 y66.45 z-6.42 u-90 v0 E0.047733
G1 F60.306075 x150.06 y66.62 z-6.33 u-90 v0 E0.047733
G1 F60.190047 x149.49 y66.78 z-6.23 u-90 v0 E0.047733
G1 F9000 x148.92 y63.54 z9.54 u-90 v90.01 E0.047733
G1 F9000 x138.85 y67.1 z-3.45 u-180 v0 E0.047733
G1 F60.190047 x138.95 y67.26 z-2.88 u-180 v0 E0.047733
G1 F60.032222 x139.04 y67.42 z-2.31 u-180 v0 E0.047733
G1 F60.032222 x139.13 y67.58 z-1.74 u-180 v0 E0.047733
G1 F60.190047 x139.23 y67.74 z-1.17 u-180 v0 E0.047733
G1 F60.032222 x139.32 y67.9 z-0.6 u-180 v0 E0.047733
G1 F60.306075 x139.41 y68.07 z-0.03 u-180 v0 E0.047733
G1 F60.116571 x139.47 y68.16 z0.31 u-180 v0 E0.0284
G1 F59.046637 x139.27 y68.03 z0.31 u-180 v0 E0.019333
G1 F60.057169 x138.77 y67.7 z0.31 u-180 v0 E0.047733
G1 F60.611652 x138.27 y67.36 z0.31 u-180 v0 E0.047733
G1 F60.891099 x137.76 y67.03 z0.31 u-180 v0 E0.047733
G1 F60.057169 x137.26 y66.7 z0.31 u-180 v0 E0.047733
G1 F60.057169 x136.76 y66.37 z0.31 u-180 v0 E0.047733
G1 F60.057169 x136.26 y66.04 z0.31 u-180 v0 E0.047733
G1 F60.057169 x135.76 y65.71 z0.31 u-180 v0 E0.047733
G1 F60.057169 x135.26 y65.38 z0.31 u-180 v0 E0.047733
G1 F60.057169 x134.76 y65.05 z0.31 u-180 v0 E0.047733
G1 F60.611652 x134.26 y64.71 z0.31 u-180 v0 E0.047733
G1 F60.057169 x133.76 y64.38 z0.31 u-180 v0 E0.047733
G1 F60.057169 x133.26 y64.05 z0.31 u-180 v0 E0.047733
G1 F60.057169 x132.76 y63.72 z0.31 u-180 v0 E0.047733
G1 F60.057169 x132.26 y63.39 z0.31 u-180 v0 E0.047733
G1 F60.057169 x131.76 y63.06 z0.31 u-180 v0 E0.047733
G1 F60.891099 x131.25 y62.73 z0.31 u-180 v0 E0.047733
G1 F60.057169 x130.75 y62.4 z0.31 u-180 v0 E0.047733
G1 F60.611652 x130.25 y62.06 z0.31 u-180 v0 E0.047733
G1 F60.057169 x129.75 y61.73 z0.31 u-180 v0 E0.047733
G1 F60.057169 x129.25 y61.4 z0.31 u-180 v0 E0.047733
G1 F60.057169 x128.75 y61.07 z0.31 u-180 v0 E0.047733
G1 F60.057169 x128.25 y60.74 z0.31 u-180 v0 E0.047733
G1 F9000 x144.59 y40.25 z-3 u-90 v-90.01 E0.047733
G1 F60.057169 x144.59 y39.75 z-2.67 u-90 v-90.01 E0.047733
G1 F9000 x126.75 y59.75 z0.31 u-180 v0 E0.047733
G1 F9000 x144.59 y38.75 z-2.01 u-90 v-90.01 E0.047733
G1 F60.057169 x144.59 y38.25 z-1.68 u-90 v-90.01 E0.047733
G1 F60.057169 x144.59 y37.75 z-1.35 u-90 v-90.01 E0.047733
G1 F60.891099 x144.59 y37.24 z-1.02 u-90 v-90.01 E0.047733
G1 F60.611652 x144.59 y36.74 z-0.68 u-90 v-90.01 E0.047733
G1 F60.057169 x144.59 y36.24 z-0.35 u-90 v-90.01 E0.047733
G1 F60.057169 x144.59 y35.74 z-0.02 u-90 v-90.01 E0.047733
G1 F60.057169 x144.59 y35.24 z0.31 u-90 v-90.01 E0.047733
G1 F60.057169 x144.59 y34.74 z0.64 u-90 v-90.01 E0.047733
G1 F60.057169 x144.59 y34.24 z0.97 u-90 v-90.01 E0.047733
G1 F60.057169 x144.59 y33.74 z1.3 u-90 v-90.01 E0.047733
G1 F60.057169 x144.59 y33.24 z1.63 u-90 v-90.01 E0.047733
G1 F2300 E-2.00 ;Filament Retraction!!
G1 F600 x144.59 y33.24 z21.63 u-90 v-90.01 E0
G1 F600 x144.59 y35.56 z20 u-90 v-90.01 E0
G1 F600 x144.59 y35.56 z0 u-90 v-90.01 E0
G1 F2100 E2.21 ;Filament (De)-Retraction!!
G1 F59.287342 x145.07 y35.88 z-0.13 u-90 v-90.01 E0.047733
G1 F60.63636 x145.56 y36.21 z-0.26 u-90 v-90.01 E0.047733
G1 F59.832269 x146.04 y36.54 z-0.39 u-90 v-90.01 E0.047733
G1 F60.098725 x146.53 y36.86 z-0.52 u-90 v-90.01 E0.047733
G1 F60.63636 x147.02 y37.19 z-0.65 u-90 v-90.01 E0.047733
G1 F60.057169 x147.5 y37.52 z-0.79 u-90 v-90.01 E0.047733
G1 F60.098725 x147.99 y37.84 z-0.92 u-90 v-90.01 E0.047733
G1 F59.832269 x148.47 y38.17 z-1.05 u-90 v-90.01 E0.047733
G1 F60.63636 x148.96 y38.5 z-1.18 u-90 v-90.01 E0.047733
G1 F60.63636 x149.45 y38.83 z-1.31 u-90 v-90.01 E0.047733
G1 F59.514302 x149.93 y39.15 z-1.45 u-90 v-90.01 E0.047733
G1 F60.63636 x150.42 y39.48 z-1.58 u-90 v-90.01 E0.047733
G1 F59.832269 x150.9 y39.81 z-1.71 u-90 v-90.01 E0.047733
G1 F60.098725 x151.39 y40.13 z-1.84 u-90 v-90.01 E0.047733
G1 F60.63636 x151.88 y40.46 z-1.97 u-90 v-90.01 E0.047733
G1 F59.832269 x152.36 y40.79 z-2.1 u-90 v-90.01 E0.047733
G1 F60.322632 x152.85 y41.11 z-2.24 u-90 v-90.01 E0.047733
G1 F59.832269 x153.33 y41.44 z-2.37 u-90 v-90.01 E0.047733
G1 F60.63636 x153.82 y41.77 z-2.5 u-90 v-90.01 E0.047733
G1 F60.098725 x154.31 y42.09 z-2.63 u-90 v-90.01 E0.047733
G1 F59.832269 x154.79 y42.42 z-2.76 u-90 v-90.01 E0.047733
G1 F60.63636 x155.28 y42.75 z-2.89 u-90 v-90.01 E0.047733
G1 F60.057169 x155.76 y43.08 z-3.03 u-90 v-90.01 E0.047733
G1 F60.098725 x156.25 y43.4 z-3.16 u-90 v-90.01 E0.047733
G1 F60.63636 x156.74 y43.73 z-3.29 u-90 v-90.01 E0.047733
G1 F59.832269 x157.22 y44.06 z-3.42 u-90 v-90.01 E0.047733
G1 F60.098725 x157.71 y44.38 z-3.55 u-90 v-90.01 E0.047733
G1 F60.85829 x158.2 y44.71 z-3.69 u-90 v-90.01 E0.047733
G1 F59.832269 x158.68 y45.04 z-3.82 u-90 v-90.01 E0.047733
G1 F60.098725 x159.17 y45.36 z-3.95 u-90 v-90.01 E0.047733
G1 F59.832269 x159.65 y45.69 z-4.08 u-90 v-90.01 E0.047733
G1 F60.63636 x160.14 y46.02 z-4.21 u-90 v-90.01 E0.047733
G1 F60.63636 x160.63 y46.35 z-4.34 u-90 v-90.01 E0.047733
G1 F59.514302 x161.11 y46.67 z-4.48 u-90 v-90.01 E0.047733
G1 F60.63636 x161.6 y47 z-4.61 u-90 v-90.01 E0.047733
G1 F59.832269 x162.08 y47.33 z-4.74 u-90 v-90.01 E0.047733
G1 F60.098725 x162.57 y47.65 z-4.87 u-90 v-90.01 E0.047733
G1 F9000 x135.48 y52.4 z18.16 u0 v-180.02 E0.047733
G1 F59.832269 x135.81 y52.27 z18.64 u0 v-180.02 E0.047733
G1 F60.098725 x136.13 y52.14 z19.13 u0 v-180.02 E0.047733
G1 F60.057169 x136.46 y52 z19.61 u0 v-180.02 E0.047733
G1 F60.63636 x136.79 y51.87 z20.1 u0 v-180.02 E0.047733
G1 F60.098725 x137.11 y51.74 z20.59 u0 v-180.02 E0.047733
G1 F59.832269 x137.44 y51.61 z21.07 u0 v-180.02 E0.047733
G1 F60.63636 x137.77 y51.48 z21.56 u0 v-180.02 E0.047733
G1 F59.514302 x138.09 y51.34 z22.04 u0 v-180.02 E0.047733
G1 F60.63636 x138.42 y51.21 z22.53 u0 v-180.02 E0.047733
G1 F59.54293 x138.52 y51.17 z22.68 u0 v-180.02 E0.014841
G1 F59.826159 x138.59 y51.06 z22.29 u0 v-180.02 E0.032892
G1 F60.032222 x138.68 y50.9 z21.72 u0 v-180.02 E0.047733
G1 F60.032222 x138.77 y50.74 z21.15 u0 v-180.02 E0.047733
G1 F61.13661 x138.87 y50.58 z20.57 u0 v-180.02 E0.047733
G1 F60.032222 x138.96 y50.42 z20 u0 v-180.02 E0.047733
G1 F60.306075 x139.05 y50.25 z19.43 u0 v-180.02 E0.047733
G1 F60.190047 x139.15 y50.09 z18.86 u0 v-180.02 E0.047733
G1 F60.032222 x139.24 y49.93 z18.29 u0 v-180.02 E0.047733
G1 F60.032222 x139.33 y49.77 z17.72 u0 v-180.02 E0.047733
G1 F60.190047 x139.43 y49.61 z17.15 u0 v-180.02 E0.047733
G1 F9000 x128.32 y49.44 z-5.35 u89.95 v-179.91 E0.047733
G1 F60.032222 x128.89 y49.28 z-5.26 u89.95 v-179.91 E0.047733
G1 F60.190047 x129.46 y49.12 z-5.16 u89.95 v-179.91 E0.047733
G1 F60.306075 x130.03 y48.95 z-5.07 u89.95 v-179.91 E0.047733
G1 F60.032222 x130.6 y48.79 z-4.98 u89.95 v-179.91 E0.047733
G1 F60.190047 x131.17 y48.63 z-4.88 u89.95 v-179.91 E0.047733
G1 F60.032222 x131.74 y48.47 z-4.79 u89.95 v-179.91 E0.047733
G1 F60.032222 x132.31 y48.31 z-4.7 u89.95 v-179.91 E0.047733
G1 F60.190047 x132.88 y48.15 z-4.6 u89.95 v-179.91 E0.047733
G1 F60.032222 x133.45 y47.99 z-4.51 u89.95 v-179.91 E0.047733
G1 F60.981235 x134.03 y47.83 z-4.42 u89.95 v-179.91 E0.047733
G1 F60.032222 x134.6 y47.67 z-4.33 u89.95 v-179.91 E0.047733
G1 F60.190047 x135.17 y47.51 z-4.23 u89.95 v-179.91 E0.047733
G1 F60.032222 x135.74 y47.35 z-4.14 u89.95 v-179.91 E0.047733
G1 F60.306075 x136.31 y47.18 z-4.05 u89.95 v-179.91 E0.047733
G1 F60.190047 x136.88 y47.02 z-3.95 u89.95 v-179.91 E0.047733
G1 F60.032222 x137.45 y46.86 z-3.86 u89.95 v-179.91 E0.047733
G1 F60.032222 x138.02 y46.7 z-3.77 u89.95 v-179.91 E0.047733
G1 F60.190047 x138.59 y46.54 z-3.67 u89.95 v-179.91 E0.047733
G1 F60.032222 x139.16 y46.38 z-3.58 u89.95 v-179.91 E0.047733
G1 F60.032222 x139.73 y46.22 z-3.49 u89.95 v-179.91 E0.047733
G1 F60.190047 x140.3 y46.06 z-3.39 u89.95 v-179.91 E0.047733
G1 F60.981235 x140.88 y45.9 z-3.3 u89.95 v-179.91 E0.047733
G1 F60.032222 x141.45 y45.74 z-3.21 u89.95 v-179.91 E0.047733
G1 F60.463186 x142.02 y45.57 z-3.11 u89.95 v-179.91 E0.047733
G1 F60.032222 x142.59 y45.41 z-3.02 u89.95 v-179.91 E0.047733
G1 F60.032222 x143.16 y45.25 z-2.93 u89.95 v-179.91 E0.047733
G1 F60.190047 x143.73 y45.09 z-2.83 u89.95 v-179.91 E0.047733
G1 F60.032222 x144.3 y44.93 z-2.74 u89.95 v-179.91 E0.047733
G1 F8999.825419 x147.55 y44.77 z-0.03 u179.91 v-179.91 E0.047733
G1 F60.560736 x147.49 y44.67 z0.31 u179.91 v-179.91 E0.0284
G1 F62.453592 x147.7 y44.81 z0.31 u179.91 v-179.91 E0.019333
G1 F60.057169 x148.2 y45.14 z0.31 u179.91 v-179.91 E0.047733
G1 F60.057169 x148.7 y45.47 z0.31 u179.91 v-179.91 E0.047733
G1 F60.057169 x149.2 y45.8 z0.31 u179.91 v-179.91 E0.047733
G1 F60.057169 x149.7 y46.13 z0.31 u179.91 v-179.91 E0.047733
G1 F60.057169 x150.2 y46.46 z0.31 u179.91 v-179.91 E0.047733
G1 F60.065483 x150.7 y46.79 z0.3 u179.91 v-179.91 E0.047733
G1 F60.891099 x151.21 y47.12 z0.3 u179.91 v-179.91 E0.047733
G1 F60.057169 x151.71 y47.45 z0.3 u179.91 v-179.91 E0.047733
G1 F60.057169 x152.21 y47.78 z0.3 u179.91 v-179.91 E0.047733
G1 F60.057169 x152.71 y48.11 z0.3 u179.91 v-179.91 E0.047733
G1 F60.057169 x153.21 y48.44 z0.3 u179.91 v-179.91 E0.047733
G1 F60.057169 x153.71 y48.77 z0.3 u179.91 v-179.91 E0.047733
G1 F60.057169 x154.21 y49.1 z0.3 u179.91 v-179.91 E0.047733
G1 F60.057169 x154.71 y49.43 z0.3 u179.91 v-179.91 E0.047733
G1 F60.891099 x155.22 y49.76 z0.3 u179.91 v-179.91 E0.047733
G1 F60.057169 x155.72 y50.09 z0.3 u179.91 v-179.91 E0.047733
G1 F60.611652 x156.22 y50.43 z0.3 u179.91 v-179.91 E0.047733
G1 F60.065483 x156.72 y50.76 z0.29 u179.91 v-179.91 E0.047733
G1 F60.057169 x157.22 y51.09 z0.29 u179.91 v-179.91 E0.047733
G1 F60.057169 x157.72 y51.42 z0.29 u179.91 v-179.91 E0.047733
G1 F60.057169 x158.22 y51.75 z0.29 u179.91 v-179.91 E0.047733
G1 F60.057169 x158.72 y52.08 z0.29 u179.91 v-179.91 E0.047733
G1 F60.891099 x159.23 y52.41 z0.29 u179.91 v-179.91 E0.047733
G1 F60.057169 x159.73 y52.74 z0.29 u179.91 v-179.91 E0.047733
G1 F60.057169 x160.23 y53.07 z0.29 u179.91 v-179.91 E0.047733
G1 F60.057169 x160.73 y53.4 z0.29 u179.91 v-179.91 E0.047733
G1 F60.057169 x161.23 y53.73 z0.29 u179.91 v-179.91 E0.047733
G1 F60.057169 x161.73 y54.06 z0.29 u179.91 v-179.91 E0.047733
G1 F9000 x145.21 y74.73 z-3.02 u89.95 v-269.86 E0.047733
G1 F60.057169 x145.21 y75.23 z-2.69 u89.95 v-269.86 E0.047733
G1 F60.057169 x145.21 y75.73 z-2.36 u89.95 v-269.86 E0.047733
G1 F9000 x163.74 y55.38 z0.28 u179.91 v-179.91 E0.047733
G1 F9000 x145.21 y76.74 z-1.7 u89.95 v-269.86 E0.047733
G1 F60.057169 x145.21 y77.24 z-1.37 u89.95 v-269.86 E0.047733
G1 F60.057169 x145.21 y77.74 z-1.04 u89.95 v-269.86 E0.047733
G1 F60.057169 x145.21 y78.24 z-0.71 u89.95 v-269.86 E0.047733
G1 F60.057169 x145.21 y78.74 z-0.38 u89.95 v-269.86 E0.047733
G1 F2300 E-2.00 ;Filament Retraction!!
G1 F600 x145.23 y78.79 z19.62 u89.95 v-269.86 E0
G1 F600 x145.25 y61.18 z45.25 u89.95 v-359.82 E0
G1 F600 x145.23 y61.12 z25.25 u89.95 v-359.82 E0
G1 F2100 E2.21 ;Filament (De)-Retraction!!
G1 F59.832269 x144.75 y61.25 z24.92 u89.95 v-359.82 E0.047733
G1 F60.098725 x144.26 y61.38 z24.6 u89.95 v-359.82 E0.047733
G1 F60.63636 x143.77 y61.51 z24.27 u89.95 v-359.82 E0.047733
G1 F59.832269 x143.29 y61.64 z23.94 u89.95 v-359.82 E0.047733
G1 F60.098725 x142.8 y61.77 z23.62 u89.95 v-359.82 E0.047733
G1 F59.832269 x142.32 y61.9 z23.29 u89.95 v-359.82 E0.047733
G1 F60.63636 x141.83 y62.03 z22.96 u89.95 v-359.82 E0.047733
G1 F60.098725 x141.34 y62.16 z22.64 u89.95 v-359.82 E0.047733
G1 F59.832269 x140.86 y62.29 z22.31 u89.95 v-359.82 E0.047733
G1 F60.63636 x140.37 y62.42 z21.98 u89.95 v-359.82 E0.047733
G1 F60.63636 x139.88 y62.55 z21.65 u89.95 v-359.82 E0.047733
G1 F59.287342 x139.4 y62.68 z21.33 u89.95 v-359.82 E0.047733
G1 F60.63636 x138.91 y62.81 z21 u89.95 v-359.82 E0.047733
G1 F60.057169 x138.43 y62.95 z20.67 u89.95 v-359.82 E0.047733
G1 F60.098725 x137.94 y63.08 z20.35 u89.95 v-359.82 E0.047733
G1 F60.63636 x137.45 y63.21 z20.02 u89.95 v-359.82 E0.047733
G1 F59.832269 x136.97 y63.34 z19.69 u89.95 v-359.82 E0.047733
G1 F60.63636 x136.48 y63.47 z19.36 u89.95 v-359.82 E0.047733
G1 F60.098725 x135.99 y63.6 z19.04 u89.95 v-359.82 E0.047733
G1 F9000 x135.49 y76.11 z-6.31 u89.95 v-269.86 E0.047733
G1 F60.63636 x135 y75.78 z-6.44 u89.95 v-269.86 E0.047733
G1 F59.832269 x134.52 y75.45 z-6.57 u89.95 v-269.86 E0.047733
G1 F60.098725 x134.03 y75.13 z-6.7 u89.95 v-269.86 E0.047733
G1 F60.63636 x133.54 y74.8 z-6.83 u89.95 v-269.86 E0.047733
G1 F59.832269 x133.06 y74.47 z-6.96 u89.95 v-269.86 E0.047733
G1 F60.63636 x132.57 y74.14 z-7.09 u89.95 v-269.86 E0.047733
G1 F59.287342 x132.09 y73.82 z-7.22 u89.95 v-269.86 E0.047733
G1 F60.63636 x131.6 y73.49 z-7.35 u89.95 v-269.86 E0.047733
G1 F60.63636 x131.11 y73.16 z-7.48 u89.95 v-269.86 E0.047733
G1 F59.287342 x130.63 y72.84 z-7.61 u89.95 v-269.86 E0.047733
G1 F60.63636 x130.14 y72.51 z-7.74 u89.95 v-269.86 E0.047733
G1 F9000 x159.67 y65.3 z15.24 u0 v-359.82 E0.047733
G1 F60.098725 x159.35 y65.43 z15.73 u0 v-359.82 E0.047733
G1 F59.832269 x159.02 y65.56 z16.21 u0 v-359.82 E0.047733
G1 F60.63636 x158.69 y65.69 z16.7 u0 v-359.82 E0.047733
G1 F59.832269 x158.36 y65.82 z17.18 u0 v-359.82 E0.047733
G1 F60.098725 x158.04 y65.95 z17.67 u0 v-359.82 E0.047733
G1 F60.63636 x157.71 y66.08 z18.16 u0 v-359.82 E0.047733
G1 F59.832269 x157.38 y66.21 z18.64 u0 v-359.82 E0.047733
G1 F60.098725 x157.06 y66.34 z19.13 u0 v-359.82 E0.047733
G1 F59.832269 x156.73 y66.47 z19.61 u0 v-359.82 E0.047733
G1 F60.63636 x156.4 y66.6 z20.1 u0 v-359.82 E0.047733
G1 F60.63636 x156.07 y66.73 z20.59 u0 v-359.82 E0.047733
G1 F59.514302 x155.75 y66.87 z21.07 u0 v-359.82 E0.047733
G1 F60.63636 x155.42 y67 z21.56 u0 v-359.82 E0.047733
G1 F59.832269 x155.09 y67.13 z22.04 u0 v-359.82 E0.047733
G1 F60.63636 x154.76 y67.26 z22.53 u0 v-359.82 E0.047733
G1 F59.54293 x154.66 y67.3 z22.68 u0 v-359.82 E0.014841
G1 F59.597219 x154.6 y67.41 z22.29 u0 v-359.82 E0.032892
G1 F60.190047 x154.5 y67.57 z21.72 u0 v-359.82 E0.047733
G1 F60.032222 x154.41 y67.73 z21.15 u0 v-359.82 E0.047733
G1 F60.981235 x154.32 y67.89 z20.57 u0 v-359.82 E0.047733
G1 F60.190047 x154.22 y68.05 z20 u0 v-359.82 E0.047733
G1 F60.032222 x154.13 y68.21 z19.43 u0 v-359.82 E0.047733
G1 F60.190047 x154.03 y68.37 z18.86 u0 v-359.82 E0.047733
G1 F60.032222 x153.94 y68.53 z18.29 u0 v-359.82 E0.047733
G1 F60.306075 x153.85 y68.7 z17.72 u0 v-359.82 E0.047733
G1 F9000 x127.76 y48.56 z11.48 u89.95 v-449.77 E0.047733
G1 F60.032222 x128.33 y48.65 z11.64 u89.95 v-449.77 E0.047733
G1 F60.190047 x128.9 y48.75 z11.8 u89.95 v-449.77 E0.047733
G1 F60.032222 x129.47 y48.84 z11.96 u89.95 v-449.77 E0.047733
G1 F60.032222 x130.04 y48.93 z12.12 u89.95 v-449.77 E0.047733
G1 F60.190047 x130.61 y49.03 z12.28 u89.95 v-449.77 E0.047733
G1 F60.032222 x131.18 y49.12 z12.44 u89.95 v-449.77 E0.047733
G1 F61.13661 x131.76 y49.22 z12.6 u89.95 v-449.77 E0.047733
G1 F60.032222 x132.33 y49.31 z12.76 u89.95 v-449.77 E0.047733
G1 F60.032222 x132.9 y49.4 z12.92 u89.95 v-449.77 E0.047733
G1 F60.190047 x133.47 y49.5 z13.08 u89.95 v-449.77 E0.047733
G1 F60.032222 x134.04 y49.59 z13.24 u89.95 v-449.77 E0.047733
G1 F60.190047 x134.61 y49.69 z13.4 u89.95 v-449.77 E0.047733
G1 F60.032222 x135.18 y49.78 z13.56 u89.95 v-449.77 E0.047733
G1 F60.032222 x135.75 y49.87 z13.72 u89.95 v-449.77 E0.047733
G1 F60.190047 x136.32 y49.97 z13.88 u89.95 v-449.77 E0.047733
G1 F60.032222 x136.89 y50.06 z14.04 u89.95 v-449.77 E0.047733
G1 F60.190047 x137.46 y50.16 z14.2 u89.95 v-449.77 E0.047733
G1 F60.981235 x138.04 y50.25 z14.36 u89.95 v-449.77 E0.047733
G1 F60.032222 x138.61 y50.34 z14.52 u89.95 v-449.77 E0.047733
G1 F60.190047 x139.18 y50.44 z14.68 u89.95 v-449.77 E0.047733
G1 F60.032222 x139.75 y50.53 z14.84 u89.95 v-449.77 E0.047733
G1 F60.190047 x140.32 y50.63 z15 u89.95 v-449.77 E0.047733
G1 F60.032222 x140.89 y50.72 z15.16 u89.95 v-449.77 E0.047733
G1 F60.032222 x141.46 y50.81 z15.32 u89.95 v-449.77 E0.047733
G1 F60.190047 x142.03 y50.91 z15.48 u89.95 v-449.77 E0.047733
G1 F60.032222 x142.6 y51 z15.64 u89.95 v-449.77 E0.047733
G1 F60.463186 x143.17 y51.1 z15.81 u89.95 v-449.77 E0.047733
G1 F60.981235 x143.75 y51.19 z15.97 u89.95 v-449.77 E0.047733
G1 F60.032222 x144.32 y51.28 z16.13 u89.95 v-449.77 E0.047733
G1 F60.190047 x144.89 y51.38 z16.29 u89.95 v-449.77 E0.047733
G1 F59.857916 x145.23 y51.43 z16.38 u89.95 v-449.77 E0.0284
G1 F59.046637 x145.23 y51.23 z16.25 u89.95 v-449.77 E0.019333
G1 F60.057169 x145.23 y50.73 z15.92 u89.95 v-449.77 E0.047733
G1 F9000 x152.11 y41.83 z0.3 u179.91 v-539.9 E0.047733
G1 F60.057169 x152.61 y42.16 z0.3 u179.91 v-539.9 E0.047733
G1 F9000 x145.23 y49.22 z14.93 u89.95 v-449.77 E0.047733
G1 F60.057169 x145.23 y48.72 z14.6 u89.95 v-449.77 E0.047733
G1 F60.065483 x145.22 y48.22 z14.27 u89.95 v-449.77 E0.047733
G1 F60.057169 x145.22 y47.72 z13.94 u89.95 v-449.77 E0.047733
G1 F60.891099 x145.22 y47.21 z13.61 u89.95 v-449.77 E0.047733
G1 F9000 x155.62 y44.14 z0.3 u179.91 v-539.9 E0.047733
G1 F60.057169 x156.12 y44.47 z0.3 u179.91 v-539.9 E0.047733
G1 F60.065483 x156.62 y44.8 z0.29 u179.91 v-539.9 E0.047733
G1 F60.057169 x157.12 y45.13 z0.29 u179.91 v-539.9 E0.047733
G1 F60.057169 x157.62 y45.46 z0.29 u179.91 v-539.9 E0.047733
G1 F60.891099 x158.13 y45.79 z0.29 u179.91 v-539.9 E0.047733
G1 F60.057169 x158.63 y46.12 z0.29 u179.91 v-539.9 E0.047733
G1 F60.057169 x159.13 y46.45 z0.29 u179.91 v-539.9 E0.047733
G1 F60.057169 x159.63 y46.78 z0.29 u179.91 v-539.9 E0.047733
G1 F60.057169 x160.13 y47.11 z0.29 u179.91 v-539.9 E0.047733
G1 F60.057169 x160.63 y47.44 z0.29 u179.91 v-539.9 E0.047733
G1 F60.057169 x161.13 y47.77 z0.29 u179.91 v-539.9 E0.047733
G1 F60.057169 x161.63 y48.1 z0.29 u179.91 v-539.9 E0.047733
G1 F60.891099 x162.14 y48.43 z0.29 u179.91 v-539.9 E0.047733
G1 F60.057169 x162.64 y48.76 z0.29 u179.91 v-539.9 E0.047733
G1 F60.065483 x163.14 y49.09 z0.28 u179.91 v-539.9 E0.047733
G1 F60.057169 x163.64 y49.42 z0.28 u179.91 v-539.9 E0.047733
G1 F60.611652 x164.14 y49.76 z0.28 u179.91 v-539.9 E0.047733
G1 F60.057169 x164.64 y50.09 z0.28 u179.91 v-539.9 E0.047733
G1 F60.057169 x165.14 y50.42 z0.28 u179.91 v-539.9 E0.047733
G1 F60.891099 x165.65 y50.75 z0.28 u179.91 v-539.9 E0.047733
G1 F60.057169 x166.15 y51.08 z0.28 u179.91 v-539.9 E0.047733
G1 F60.057169 x166.65 y51.41 z0.28 u179.91 v-539.9 E0.047733
G1 F60.057169 x167.15 y51.74 z0.28 u179.91 v-539.9 E0.047733
G1 F60.057169 x167.65 y52.07 z0.28 u179.91 v-539.9 E0.047733
G1 F9000 x145.23 y62.44 z23.24 u89.95 v-719.81 E0.047733
G1 F9000 x168.65 y52.73 z0.28 u179.91 v-539.9 E0.047733
G1 F9000 x145.23 y61.78 z24.25 u89.95 v-719.81 E0.047733
G1 F60.057169 x145.23 y61.45 z24.75 u89.95 v-719.81 E0.047733
G1 F2300 E-2.00 ;Filament Retraction!!
G1 F600 x145.25 y61.52 z44.75 u89.95 v-719.81 E0
G1 F600 x145.25 y63.28 z46.69 u89.95 v-719.81 E0
G1 F600 x145.23 y63.21 z26.69 u89.95 v-719.81 E0
G1 F2100 E2.21 ;Filament (De)-Retraction!!
G1 F59.832269 x144.75 y63.34 z26.36 u89.95 v-719.81 E0.047733
G1 F60.63636 x144.26 y63.47 z26.03 u89.95 v-719.81 E0.047733
G1 F59.832269 x143.78 y63.6 z25.7 u89.95 v-719.81 E0.047733
G1 F60.098725 x143.29 y63.73 z25.38 u89.95 v-719.81 E0.047733
G1 F60.63636 x142.8 y63.86 z25.05 u89.95 v-719.81 E0.047733
G1 F59.832269 x142.32 y63.99 z24.72 u89.95 v-719.81 E0.047733
G1 F60.098725 x141.83 y64.12 z24.4 u89.95 v-719.81 E0.047733
G1 F60.63636 x141.34 y64.25 z24.07 u89.95 v-719.81 E0.047733
G1 F59.832269 x140.86 y64.38 z23.74 u89.95 v-719.81 E0.047733
G1 F60.63636 x140.37 y64.51 z23.41 u89.95 v-719.81 E0.047733
G1 F59.287342 x139.89 y64.64 z23.09 u89.95 v-719.81 E0.047733
G1 F60.85829 x139.4 y64.78 z22.76 u89.95 v-719.81 E0.047733
G1 F60.63636 x138.91 y64.91 z22.43 u89.95 v-719.81 E0.047733
G1 F59.287342 x138.43 y65.04 z22.11 u89.95 v-719.81 E0.047733
G1 F60.63636 x137.94 y65.17 z21.78 u89.95 v-719.81 E0.047733
G1 F60.63636 x137.45 y65.3 z21.45 u89.95 v-719.81 E0.047733
G1 F59.287342 x136.97 y65.43 z21.13 u89.95 v-719.81 E0.047733
G1 F60.63636 x136.48 y65.56 z20.8 u89.95 v-719.81 E0.047733
G1 F59.832269 x136 y65.69 z20.47 u89.95 v-719.81 E0.047733
G1 F60.63636 x135.51 y65.82 z20.14 u89.95 v-719.81 E0.047733
G1 F60.098725 x135.02 y65.95 z19.82 u89.95 v-719.81 E0.047733
G1 F59.832269 x134.54 y66.08 z19.49 u89.95 v-719.81 E0.047733
G1 F60.63636 x134.05 y66.21 z19.16 u89.95 v-719.81 E0.047733
G1 F60.098725 x133.56 y66.34 z18.84 u89.95 v-719.81 E0.047733
G1 F59.832269 x133.08 y66.47 z18.51 u89.95 v-719.81 E0.047733
G1 F60.63636 x132.59 y66.6 z18.18 u89.95 v-719.81 E0.047733
G1 F59.832269 x132.11 y66.73 z17.85 u89.95 v-719.81 E0.047733
G1 F9000 x131.61 y39.89 z9.49 u89.95 v-809.76 E0.047733
G1 F59.832269 x131.13 y40.22 z9.62 u89.95 v-809.76 E0.047733
G1 F60.63636 x130.64 y40.55 z9.75 u89.95 v-809.76 E0.047733
G1 F60.098725 x130.15 y40.87 z9.88 u89.95 v-809.76 E0.047733
G1 F59.832269 x129.67 y41.2 z10.01 u89.95 v-809.76 E0.047733
G1 F60.63636 x129.18 y41.53 z10.14 u89.95 v-809.76 E0.047733
G1 F59.832269 x128.7 y41.86 z10.27 u89.95 v-809.76 E0.047733
G1 F9000 x160.13 y67.78 z16.7 u0 v-719.81 E0.047733
G1 F59.832269 x159.8 y67.91 z17.18 u0 v-719.81 E0.047733
G1 F60.63636 x159.47 y68.04 z17.67 u0 v-719.81 E0.047733
G1 F60.63636 x159.14 y68.17 z18.16 u0 v-719.81 E0.047733
G1 F59.287342 x158.82 y68.3 z18.64 u0 v-719.81 E0.047733
G1 F60.63636 x158.49 y68.43 z19.13 u0 v-719.81 E0.047733
G1 F59.832269 x158.16 y68.56 z19.61 u0 v-719.81 E0.047733
G1 F60.63636 x157.83 y68.69 z20.1 u0 v-719.81 E0.047733
G1 F60.098725 x157.51 y68.82 z20.59 u0 v-719.81 E0.047733
G1 F59.832269 x157.18 y68.95 z21.07 u0 v-719.81 E0.047733
G1 F60.85829 x156.85 y69.09 z21.56 u0 v-719.81 E0.047733
G1 F59.832269 x156.52 y69.22 z22.04 u0 v-719.81 E0.047733
G1 F60.098725 x156.2 y69.35 z22.53 u0 v-719.81 E0.047733
G1 F61.337553 x156.09 y69.39 z22.68 u0 v-719.81 E0.014841
G1 F59.597219 x156.03 y69.5 z22.29 u0 v-719.81 E0.032892
G1 F60.032222 x155.94 y69.66 z21.72 u0 v-719.81 E0.047733
G1 F60.190047 x155.84 y69.82 z21.15 u0 v-719.81 E0.047733
G1 F60.981235 x155.75 y69.98 z20.57 u0 v-719.81 E0.047733
G1 F60.190047 x155.65 y70.14 z20 u0 v-719.81 E0.047733
G1 F60.032222 x155.56 y70.3 z19.43 u0 v-719.81 E0.047733
G1 F9000 x126.05 y46.84 z13.09 u89.95 v-809.76 E0.047733
G1 F60.190047 x126.62 y46.94 z13.25 u89.95 v-809.76 E0.047733
G1 F60.032222 x127.19 y47.03 z13.41 u89.95 v-809.76 E0.047733
G1 F60.190047 x127.76 y47.13 z13.57 u89.95 v-809.76 E0.047733
G1 F60.032222 x128.33 y47.22 z13.73 u89.95 v-809.76 E0.047733
G1 F60.032222 x128.9 y47.31 z13.89 u89.95 v-809.76 E0.047733
G1 F60.190047 x129.47 y47.41 z14.05 u89.95 v-809.76 E0.047733
G1 F60.032222 x130.04 y47.5 z14.21 u89.95 v-809.76 E0.047733
G1 F61.13661 x130.62 y47.6 z14.37 u89.95 v-809.76 E0.047733
G1 F60.032222 x131.19 y47.69 z14.53 u89.95 v-809.76 E0.047733
G1 F60.032222 x131.76 y47.78 z14.69 u89.95 v-809.76 E0.047733
G1 F60.190047 x132.33 y47.88 z14.85 u89.95 v-809.76 E0.047733
G1 F60.032222 x132.9 y47.97 z15.01 u89.95 v-809.76 E0.047733
G1 F60.190047 x133.47 y48.07 z15.17 u89.95 v-809.76 E0.047733
G1 F60.032222 x134.04 y48.16 z15.33 u89.95 v-809.76 E0.047733
G1 F60.032222 x134.61 y48.25 z15.49 u89.95 v-809.76 E0.047733
G1 F60.190047 x135.18 y48.35 z15.65 u89.95 v-809.76 E0.047733
G1 F60.032222 x135.75 y48.44 z15.81 u89.95 v-809.76 E0.047733
G1 F60.190047 x136.32 y48.54 z15.97 u89.95 v-809.76 E0.047733
G1 F60.981235 x136.9 y48.63 z16.13 u89.95 v-809.76 E0.047733
G1 F60.190047 x137.47 y48.73 z16.29 u89.95 v-809.76 E0.047733
G1 F60.032222 x138.04 y48.82 z16.45 u89.95 v-809.76 E0.047733
G1 F60.032222 x138.61 y48.91 z16.61 u89.95 v-809.76 E0.047733
G1 F60.190047 x139.18 y49.01 z16.77 u89.95 v-809.76 E0.047733
G1 F60.032222 x139.75 y49.1 z16.93 u89.95 v-809.76 E0.047733
G1 F60.190047 x140.32 y49.2 z17.09 u89.95 v-809.76 E0.047733
G1 F60.032222 x140.89 y49.29 z17.25 u89.95 v-809.76 E0.047733
G1 F60.032222 x141.46 y49.38 z17.41 u89.95 v-809.76 E0.047733
G1 F60.190047 x142.03 y49.48 z17.57 u89.95 v-809.76 E0.047733
G1 F60.032222 x142.6 y49.57 z17.73 u89.95 v-809.76 E0.047733
G1 F61.13661 x143.18 y49.67 z17.89 u89.95 v-809.76 E0.047733
G1 F60.306075 x143.75 y49.76 z18.06 u89.95 v-809.76 E0.047733
G1 F60.032222 x144.32 y49.85 z18.22 u89.95 v-809.76 E0.047733
G1 F60.190047 x144.89 y49.95 z18.38 u89.95 v-809.76 E0.047733
G1 F9000 x152.34 y38.94 z0.3 u179.91 v-899.89 E0.0284
G1 F60.422398 x152.54 y39.08 z0.3 u179.91 v-899.89 E0.019333
G1 F60.057169 x153.04 y39.41 z0.3 u179.91 v-899.89 E0.047733
G1 F60.057169 x153.54 y39.74 z0.3 u179.91 v-899.89 E0.047733
G1 F60.891099 x154.05 y40.07 z0.3 u179.91 v-899.89 E0.047733
G1 F60.057169 x154.55 y40.4 z0.3 u179.91 v-899.89 E0.047733
G1 F60.057169 x155.05 y40.73 z0.3 u179.91 v-899.89 E0.047733
G1 F60.057169 x155.55 y41.06 z0.3 u179.91 v-899.89 E0.047733
G1 F60.057169 x156.05 y41.39 z0.3 u179.91 v-899.89 E0.047733
G1 F60.065483 x156.55 y41.72 z0.29 u179.91 v-899.89 E0.047733
G1 F60.057169 x157.05 y42.05 z0.29 u179.91 v-899.89 E0.047733
G1 F60.057169 x157.55 y42.38 z0.29 u179.91 v-899.89 E0.047733
G1 F60.891099 x158.06 y42.71 z0.29 u179.91 v-899.89 E0.047733
G1 F9000 x145.23 y43.77 z14.39 u89.95 v-809.76 E0.047733
G1 F60.065483 x145.22 y43.27 z14.06 u89.95 v-809.76 E0.047733
G1 F60.057169 x145.22 y42.77 z13.73 u89.95 v-809.76 E0.047733
G1 F60.057169 x145.22 y42.27 z13.4 u89.95 v-809.76 E0.047733
G1 F9000 x160.56 y44.36 z0.29 u179.91 v-899.89 E0.047733
G1 F60.057169 x161.06 y44.69 z0.29 u179.91 v-899.89 E0.047733
G1 F60.891099 x161.57 y45.02 z0.29 u179.91 v-899.89 E0.047733
G1 F60.057169 x162.07 y45.35 z0.29 u179.91 v-899.89 E0.047733
G1 F60.057169 x162.57 y45.68 z0.29 u179.91 v-899.89 E0.047733
G1 F60.065483 x163.07 y46.01 z0.28 u179.91 v-899.89 E0.047733
G1 F60.057169 x163.57 y46.34 z0.28 u179.91 v-899.89 E0.047733
G1 F60.611652 x164.07 y46.68 z0.28 u179.91 v-899.89 E0.047733
G1 F60.057169 x164.57 y47.01 z0.28 u179.91 v-899.89 E0.047733
G1 F60.891099 x165.08 y47.34 z0.28 u179.91 v-899.89 E0.047733
G1 F60.057169 x165.58 y47.67 z0.28 u179.91 v-899.89 E0.047733
G1 F60.057169 x166.08 y48 z0.28 u179.91 v-899.89 E0.047733
G1 F60.057169 x166.58 y48.33 z0.28 u179.91 v-899.89 E0.047733
G1 F60.057169 x167.08 y48.66 z0.28 u179.91 v-899.89 E0.047733
G1 F60.057169 x167.58 y48.99 z0.28 u179.91 v-899.89 E0.047733
G1 F9000 x145.23 y65.52 z23.17 u89.95 v-1079.8 E0.047733
G1 F9000 x168.59 y49.65 z0.28 u179.91 v-899.89 E0.047733
G1 F60.057169 x169.09 y49.98 z0.28 u179.91 v-899.89 E0.047733
G1 F60.065483 x169.59 y50.31 z0.27 u179.91 v-899.89 E0.047733
G1 F9000 x145.23 y64.2 z25.18 u89.95 v-1079.8 E0.047733
G1 F9000 x170.59 y50.97 z0.27 u179.91 v-899.89 E0.047733
G1 F9000 x145.23 y63.54 z26.18 u89.95 v-1079.8 E0.047733
G1 F600 x145.25 y63.61 z46.18 u89.95 v-1079.8 E0
; END G-CODE
G1 E-1
M104 S0 ; turn off temperature
G0 Z100 ; move the head up

T-1 ; Drop the head

