; START 5_axis G-code
; We assume that machine is not stopped from planar construction


G90 ; use absolute coordinates

Z60.750

T0 ; Pick up Tool 1
G0 Z80;

M302 P1 ; Allow cold extrusion



M104 S225 ; set extruder temp
M109 S225 ; wait for extruder temp
G21 ; set units to millimeters

G90 ; use absolute coordinates
M83 ; use relative distances for extrusion

M98 P"/macros/wiping.g" ;move the nozzle to centre

G0 u0 v0 ;
M98 P"/macros/move_to_mid.g" ;move the nozzle to centre


G1 E1.0 ; initial extrusion


G1 F600 x137.7 y62.14 z14.46 u89.95 v89.95 E0
G1 F600 x137.68 y62.15 z-5.54 u89.95 v89.95 E0
G1 F60.972227 x137.68 y62.76 z-5.54 u89.95 v89.95 E0.047869
G1 F59.978851 x137.68 y63.36 z-5.54 u89.95 v89.95 E0.047869
G1 F59.978851 x137.68 y63.96 z-5.54 u89.95 v89.95 E0.047869
G1 F59.978851 x137.68 y64.56 z-5.54 u89.95 v89.95 E0.047869
G1 F60.972227 x137.68 y65.17 z-5.54 u89.95 v89.95 E0.047869
G1 F59.978851 x137.68 y65.77 z-5.54 u89.95 v89.95 E0.047869
G1 F59.978851 x137.68 y66.37 z-5.54 u89.95 v89.95 E0.047869
G1 F59.978851 x137.68 y66.97 z-5.54 u89.95 v89.95 E0.047869
G1 F59.978851 x137.68 y67.57 z-5.54 u89.95 v89.95 E0.047869
G1 F60.972227 x137.68 y68.18 z-5.54 u89.95 v89.95 E0.047869
G1 F59.978851 x137.68 y68.78 z-5.54 u89.95 v89.95 E0.047869
G1 F59.978851 x137.68 y69.38 z-5.54 u89.95 v89.95 E0.047869
G1 F59.987128 x137.68 y69.98 z-5.53 u89.95 v89.95 E0.047869
G1 F59.978851 x137.68 y70.58 z-5.53 u89.95 v89.95 E0.047869
G1 F60.972227 x137.68 y71.19 z-5.53 u89.95 v89.95 E0.047869
G1 F59.978851 x137.68 y71.79 z-5.53 u89.95 v89.95 E0.047869
G1 F59.978851 x137.68 y72.39 z-5.53 u89.95 v89.95 E0.047869
G1 F59.978851 x137.68 y72.99 z-5.53 u89.95 v89.95 E0.047869
G1 F59.978851 x137.68 y73.59 z-5.53 u89.95 v89.95 E0.047869
G1 F60.972227 x137.68 y74.2 z-5.53 u89.95 v89.95 E0.047869
G1 F59.978851 x137.68 y74.8 z-5.53 u89.95 v89.95 E0.047869
G1 F59.978851 x137.68 y75.4 z-5.53 u89.95 v89.95 E0.047869
G1 F59.978851 x137.68 y76 z-5.53 u89.95 v89.95 E0.047869
G1 F60.972227 x137.68 y76.61 z-5.53 u89.95 v89.95 E0.047869
G1 F9000 x137.7 y62.95 z19.81 u89.95 v0 E0.047869
G1 F59.978851 x137.7 y62.95 z20.41 u89.95 v0 E0.047869
G1 F59.978851 x137.7 y62.95 z21.01 u89.95 v0 E0.047869
G1 F60.98037 x137.71 y62.95 z21.62 u89.95 v0 E0.047869
G1 F59.978851 x137.71 y62.95 z22.22 u89.95 v0 E0.047869
G1 F59.978851 x137.71 y62.95 z22.82 u89.95 v0 E0.047869
G1 F59.978851 x137.71 y62.95 z23.42 u89.95 v0 E0.047869
G1 F59.978851 x137.71 y62.95 z24.02 u89.95 v0 E0.047869
G1 F60.972227 x137.71 y62.95 z24.63 u89.95 v0 E0.047869
G1 F57.861628 x137.71 y62.95 z24.82 u89.95 v0 E0.015717
G1 F59.535052 x137.71 y63.35 z24.82 u89.95 v0 E0.032152
G1 F60.972227 x137.71 y63.96 z24.82 u89.95 v0 E0.047869
G1 F59.978851 x137.71 y64.56 z24.82 u89.95 v0 E0.047869
G1 F59.978851 x137.71 y65.16 z24.82 u89.95 v0 E0.047869
G1 F59.978851 x137.71 y65.76 z24.82 u89.95 v0 E0.047869
G1 F60.972227 x137.71 y66.37 z24.82 u89.95 v0 E0.047869
G1 F59.978851 x137.71 y66.97 z24.82 u89.95 v0 E0.047869
G1 F59.978851 x137.71 y67.57 z24.82 u89.95 v0 E0.047869
G1 F59.978851 x137.71 y68.17 z24.82 u89.95 v0 E0.047869
G1 F59.978851 x137.71 y68.77 z24.82 u89.95 v0 E0.047869
G1 F60.972227 x137.71 y69.38 z24.82 u89.95 v0 E0.047869
G1 F59.978851 x137.71 y69.98 z24.82 u89.95 v0 E0.047869
G1 F59.978851 x137.71 y70.58 z24.82 u89.95 v0 E0.047869
G1 F59.978851 x137.71 y71.18 z24.82 u89.95 v0 E0.047869
G1 F59.978851 x137.71 y71.78 z24.82 u89.95 v0 E0.047869
G1 F60.972227 x137.71 y72.39 z24.82 u89.95 v0 E0.047869
G1 F59.978851 x137.71 y72.99 z24.82 u89.95 v0 E0.047869
G1 F59.978851 x137.71 y73.59 z24.82 u89.95 v0 E0.047869
G1 F59.978851 x137.71 y74.19 z24.82 u89.95 v0 E0.047869
G1 F60.972227 x137.71 y74.8 z24.82 u89.95 v0 E0.047869
G1 F59.978851 x137.71 y75.4 z24.82 u89.95 v0 E0.047869
G1 F59.978851 x137.71 y75.4 z24.22 u89.95 v0 E0.047869
G1 F59.978851 x137.71 y75.4 z23.62 u89.95 v0 E0.047869
G1 F59.978851 x137.71 y75.4 z23.02 u89.95 v0 E0.047869
G1 F59.978851 x137.71 y75.4 z22.42 u89.95 v0 E0.047869
G1 F9000 x137.7 y35.61 z18.02 u89.95 v-89.95 E0.047869
G1 F59.978851 x137.7 y36.21 z18.02 u89.95 v-89.95 E0.047869
G1 F59.978851 x137.7 y36.81 z18.02 u89.95 v-89.95 E0.047869
G1 F59.978851 x137.7 y37.41 z18.02 u89.95 v-89.95 E0.047869
G1 F60.972227 x137.7 y38.02 z18.02 u89.95 v-89.95 E0.047869
G1 F59.978851 x137.7 y38.62 z18.02 u89.95 v-89.95 E0.047869
G1 F59.978851 x137.7 y39.22 z18.02 u89.95 v-89.95 E0.047869
G1 F59.978851 x137.7 y39.82 z18.02 u89.95 v-89.95 E0.047869
G1 F59.978851 x137.7 y40.42 z18.02 u89.95 v-89.95 E0.047869
G1 F60.972227 x137.7 y41.03 z18.02 u89.95 v-89.95 E0.047869
G1 F59.978851 x137.7 y41.63 z18.02 u89.95 v-89.95 E0.047869
G1 F59.978851 x137.7 y42.23 z18.02 u89.95 v-89.95 E0.047869
G1 F59.987128 x137.7 y42.83 z18.01 u89.95 v-89.95 E0.047869
G1 F59.978851 x137.7 y43.43 z18.01 u89.95 v-89.95 E0.047869
G1 F60.972227 x137.7 y44.04 z18.01 u89.95 v-89.95 E0.047869
G1 F59.978851 x137.7 y44.64 z18.01 u89.95 v-89.95 E0.047869
G1 F59.978851 x137.7 y45.24 z18.01 u89.95 v-89.95 E0.047869
G1 F59.978851 x137.7 y45.84 z18.01 u89.95 v-89.95 E0.047869
G1 F60.972227 x137.7 y46.45 z18.01 u89.95 v-89.95 E0.047869
G1 F59.978851 x137.7 y47.05 z18.01 u89.95 v-89.95 E0.047869
G1 F59.978851 x137.7 y47.65 z18.01 u89.95 v-89.95 E0.047869
G1 F59.978851 x137.7 y48.25 z18.01 u89.95 v-89.95 E0.047869
G1 F59.978851 x137.7 y48.85 z18.01 u89.95 v-89.95 E0.047869
G1 F60.972227 x137.7 y49.46 z18.01 u89.95 v-89.95 E0.047869
G1 F59.978851 x137.7 y50.06 z18.01 u89.95 v-89.95 E0.047869
G1 F59.978851 x137.7 y50.66 z18.01 u89.95 v-89.95 E0.047869
G1 F59.978851 x137.7 y51.26 z18.01 u89.95 v-89.95 E0.047869
G1 F59.978851 x137.7 y51.86 z18.01 u89.95 v-89.95 E0.047869
G1 F60.972227 x137.7 y52.47 z18.01 u89.95 v-89.95 E0.047869
G1 F57.861628 x137.7 y52.66 z18.01 u89.95 v-89.95 E0.015717
G1 F61.01399 x137.7 y52.66 z17.6 u89.95 v-89.95 E0.032152
G1 F59.978851 x137.7 y52.66 z17 u89.95 v-89.95 E0.047869
G1 F59.978851 x137.7 y52.66 z16.4 u89.95 v-89.95 E0.047869
G1 F59.978851 x137.7 y52.66 z15.8 u89.95 v-89.95 E0.047869
G1 F60.972227 x137.7 y52.66 z15.19 u89.95 v-89.95 E0.047869
G1 F59.978851 x137.7 y52.66 z14.59 u89.95 v-89.95 E0.047869
G1 F59.978851 x137.7 y52.66 z13.99 u89.95 v-89.95 E0.047869
G1 F59.978851 x137.7 y52.66 z13.39 u89.95 v-89.95 E0.047869
G1 F59.978851 x137.7 y52.66 z12.79 u89.95 v-89.95 E0.047869
G1 F60.972227 x137.7 y52.66 z12.18 u89.95 v-89.95 E0.047869
G1 F59.978851 x137.7 y52.66 z11.58 u89.95 v-89.95 E0.047869
G1 F59.978851 x137.7 y52.66 z10.98 u89.95 v-89.95 E0.047869
G1 F9000 x137.68 y47.03 z-4.73 u89.95 v-179.91 E0.047869
G1 F59.978851 x137.68 y47.63 z-4.73 u89.95 v-179.91 E0.047869
G1 F59.978851 x137.68 y48.23 z-4.73 u89.95 v-179.91 E0.047869
G1 F59.978851 x137.68 y48.83 z-4.73 u89.95 v-179.91 E0.047869
G1 F59.978851 x137.68 y49.43 z-4.73 u89.95 v-179.91 E0.047869
G1 F60.972227 x137.68 y50.04 z-4.73 u89.95 v-179.91 E0.047869
G1 F59.978851 x137.68 y50.64 z-4.73 u89.95 v-179.91 E0.047869
G1 F59.978851 x137.68 y51.24 z-4.73 u89.95 v-179.91 E0.047869
G1 F2300 E-2.00 ;Filament Retraction!!
G1 F600 x137.7 y51.27 z15.27 u89.95 v-179.91 E0
G1 F600 x152.11 y54.44 z17.07 u-90 v-90.01 E0
G1 F600 x152.11 y54.43 z-2.93 u-90 v-90.01 E0
G1 F2100 E2.21 ;Filament (De)-Retraction!!
G1 F59.978851 x152.11 y53.83 z-2.93 u-90 v-90.01 E0.047869
G1 F59.978851 x152.11 y53.23 z-2.93 u-90 v-90.01 E0.047869
G1 F59.978851 x152.11 y52.63 z-2.93 u-90 v-90.01 E0.047869
G1 F60.972227 x152.11 y52.02 z-2.93 u-90 v-90.01 E0.047869
G1 F59.978851 x152.11 y51.42 z-2.93 u-90 v-90.01 E0.047869
G1 F59.978851 x152.11 y50.82 z-2.93 u-90 v-90.01 E0.047869
G1 F59.978851 x152.11 y50.22 z-2.93 u-90 v-90.01 E0.047869
G1 F59.978851 x152.11 y49.62 z-2.93 u-90 v-90.01 E0.047869
G1 F60.972227 x152.11 y49.01 z-2.93 u-90 v-90.01 E0.047869
G1 F59.978851 x152.11 y48.41 z-2.93 u-90 v-90.01 E0.047869
G1 F59.978851 x152.11 y47.81 z-2.93 u-90 v-90.01 E0.047869
G1 F59.978851 x152.11 y47.21 z-2.93 u-90 v-90.01 E0.047869
G1 F59.978851 x152.11 y46.61 z-2.93 u-90 v-90.01 E0.047869
G1 F60.972227 x152.11 y46 z-2.93 u-90 v-90.01 E0.047869
G1 F59.978851 x152.11 y45.4 z-2.93 u-90 v-90.01 E0.047869
G1 F59.987128 x152.11 y44.8 z-2.92 u-90 v-90.01 E0.047869
G1 F59.978851 x152.11 y44.2 z-2.92 u-90 v-90.01 E0.047869
G1 F60.972227 x152.11 y43.59 z-2.92 u-90 v-90.01 E0.047869
G1 F59.978851 x152.11 y42.99 z-2.92 u-90 v-90.01 E0.047869
G1 F59.978851 x152.11 y42.39 z-2.92 u-90 v-90.01 E0.047869
G1 F59.978851 x152.11 y41.79 z-2.92 u-90 v-90.01 E0.047869
G1 F59.978851 x152.11 y41.19 z-2.92 u-90 v-90.01 E0.047869
G1 F60.972227 x152.11 y40.58 z-2.92 u-90 v-90.01 E0.047869
G1 F59.978851 x152.11 y39.98 z-2.92 u-90 v-90.01 E0.047869
G1 F59.978851 x152.11 y39.38 z-2.92 u-90 v-90.01 E0.047869
G1 F59.978851 x152.11 y38.78 z-2.92 u-90 v-90.01 E0.047869
G1 F59.978851 x152.11 y38.18 z-2.92 u-90 v-90.01 E0.047869
G1 F60.972227 x152.11 y37.57 z-2.92 u-90 v-90.01 E0.047869
G1 F59.978851 x152.11 y36.97 z-2.92 u-90 v-90.01 E0.047869
G1 F59.978851 x152.11 y36.37 z-2.92 u-90 v-90.01 E0.047869
G1 F59.978851 x152.11 y35.77 z-2.92 u-90 v-90.01 E0.047869
G1 F9000 x152.11 y54.48 z22.24 u-90 v-180.02 E0.047869
G1 F59.978851 x152.11 y54.48 z22.84 u-90 v-180.02 E0.047869
G1 F60.886794 x152.11 y54.48 z23.04 u-90 v-180.02 E0.015717
G1 F59.535052 x152.11 y54.08 z23.04 u-90 v-180.02 E0.032152
G1 F59.978851 x152.11 y53.48 z23.04 u-90 v-180.02 E0.047869
G1 F60.972227 x152.11 y52.87 z23.04 u-90 v-180.02 E0.047869
G1 F59.978851 x152.11 y52.27 z23.04 u-90 v-180.02 E0.047869
G1 F59.978851 x152.11 y51.67 z23.04 u-90 v-180.02 E0.047869
G1 F59.978851 x152.11 y51.07 z23.04 u-90 v-180.02 E0.047869
G1 F60.972227 x152.11 y50.46 z23.04 u-90 v-180.02 E0.047869
G1 F59.978851 x152.11 y49.86 z23.04 u-90 v-180.02 E0.047869
G1 F59.978851 x152.11 y49.26 z23.04 u-90 v-180.02 E0.047869
G1 F59.978851 x152.11 y48.66 z23.04 u-90 v-180.02 E0.047869
G1 F59.978851 x152.11 y48.06 z23.04 u-90 v-180.02 E0.047869
G1 F60.972227 x152.11 y47.45 z23.04 u-90 v-180.02 E0.047869
G1 F59.978851 x152.11 y46.85 z23.04 u-90 v-180.02 E0.047869
G1 F59.978851 x152.11 y46.25 z23.04 u-90 v-180.02 E0.047869
G1 F59.978851 x152.11 y45.65 z23.04 u-90 v-180.02 E0.047869
G1 F59.978851 x152.11 y45.05 z23.04 u-90 v-180.02 E0.047869
G1 F60.972227 x152.11 y44.44 z23.04 u-90 v-180.02 E0.047869
G1 F59.978851 x152.11 y43.84 z23.04 u-90 v-180.02 E0.047869
G1 F59.978851 x152.11 y43.24 z23.04 u-90 v-180.02 E0.047869
G1 F59.978851 x152.11 y42.64 z23.04 u-90 v-180.02 E0.047869
G1 F59.978851 x152.11 y42.04 z23.04 u-90 v-180.02 E0.047869
G1 F59.987128 x152.11 y42.03 z22.44 u-90 v-180.02 E0.047869
G1 F9000 x152.11 y79.24 z15.36 u-90 v-270.04 E0.047869
G1 F59.978851 x152.11 y78.64 z15.36 u-90 v-270.04 E0.047869
G1 F59.978851 x152.11 y78.04 z15.36 u-90 v-270.04 E0.047869
G1 F60.972227 x152.11 y77.43 z15.36 u-90 v-270.04 E0.047869
G1 F59.978851 x152.11 y76.83 z15.36 u-90 v-270.04 E0.047869
G1 F59.978851 x152.11 y76.23 z15.36 u-90 v-270.04 E0.047869
G1 F59.978851 x152.11 y75.63 z15.36 u-90 v-270.04 E0.047869
G1 F60.972227 x152.11 y75.02 z15.36 u-90 v-270.04 E0.047869
G1 F59.978851 x152.11 y74.42 z15.36 u-90 v-270.04 E0.047869
G1 F59.978851 x152.11 y73.82 z15.36 u-90 v-270.04 E0.047869
G1 F59.978851 x152.11 y73.22 z15.36 u-90 v-270.04 E0.047869
G1 F59.978851 x152.11 y72.62 z15.36 u-90 v-270.04 E0.047869
G1 F60.98037 x152.11 y72.01 z15.37 u-90 v-270.04 E0.047869
G1 F59.978851 x152.11 y71.41 z15.37 u-90 v-270.04 E0.047869
G1 F59.978851 x152.11 y70.81 z15.37 u-90 v-270.04 E0.047869
G1 F59.978851 x152.11 y70.21 z15.37 u-90 v-270.04 E0.047869
G1 F59.978851 x152.11 y69.61 z15.37 u-90 v-270.04 E0.047869
G1 F60.972227 x152.11 y69 z15.37 u-90 v-270.04 E0.047869
G1 F59.978851 x152.11 y68.4 z15.37 u-90 v-270.04 E0.047869
G1 F59.978851 x152.11 y67.8 z15.37 u-90 v-270.04 E0.047869
G1 F59.978851 x152.11 y67.2 z15.37 u-90 v-270.04 E0.047869
G1 F60.972227 x152.11 y66.59 z15.37 u-90 v-270.04 E0.047869
G1 F59.978851 x152.11 y65.99 z15.37 u-90 v-270.04 E0.047869
G1 F59.978851 x152.11 y65.39 z15.37 u-90 v-270.04 E0.047869
G1 F59.978851 x152.11 y64.79 z15.37 u-90 v-270.04 E0.047869
G1 F59.978851 x152.11 y64.19 z15.37 u-90 v-270.04 E0.047869
G1 F60.972227 x152.11 y63.58 z15.37 u-90 v-270.04 E0.047869
G1 F59.978851 x152.11 y62.98 z15.37 u-90 v-270.04 E0.047869
G1 F59.978851 x152.11 y62.38 z15.37 u-90 v-270.04 E0.047869
G1 F59.978851 x152.11 y61.78 z15.37 u-90 v-270.04 E0.047869
G1 F59.978851 x152.11 y61.18 z15.37 u-90 v-270.04 E0.047869
G1 F60.972227 x152.11 y60.57 z15.37 u-90 v-270.04 E0.047869
G1 F57.861628 x152.11 y60.38 z15.37 u-90 v-270.04 E0.015717
G1 F59.535052 x152.11 y60.38 z14.97 u-90 v-270.04 E0.032152
G1 F59.978851 x152.11 y60.38 z14.37 u-90 v-270.04 E0.047869
G1 F60.972227 x152.11 y60.38 z13.76 u-90 v-270.04 E0.047869
G1 F59.987128 x152.11 y60.37 z13.16 u-90 v-270.04 E0.047869
G1 F9000 x152.11 y69.96 z-2.98 u-90 v-360.05 E0.047869
G1 F59.978851 x152.11 y69.36 z-2.98 u-90 v-360.05 E0.047869
G1 F60.972227 x152.11 y68.75 z-2.98 u-90 v-360.05 E0.047869
G1 F59.978851 x152.11 y68.15 z-2.98 u-90 v-360.05 E0.047869
G1 F59.987128 x152.11 y67.55 z-2.97 u-90 v-360.05 E0.047869
G1 F59.978851 x152.11 y66.95 z-2.97 u-90 v-360.05 E0.047869
G1 F59.978851 x152.11 y66.35 z-2.97 u-90 v-360.05 E0.047869
G1 F60.972227 x152.11 y65.74 z-2.97 u-90 v-360.05 E0.047869
G1 F59.978851 x152.11 y65.14 z-2.97 u-90 v-360.05 E0.047869
G1 F59.978851 x152.11 y64.54 z-2.97 u-90 v-360.05 E0.047869
G1 F59.978851 x152.11 y63.94 z-2.97 u-90 v-360.05 E0.047869
G1 F59.978851 x152.11 y63.34 z-2.97 u-90 v-360.05 E0.047869
G1 F60.972227 x152.11 y62.73 z-2.97 u-90 v-360.05 E0.047869
G1 F59.978851 x152.11 y62.13 z-2.97 u-90 v-360.05 E0.047869
G1 F59.978851 x152.11 y61.53 z-2.97 u-90 v-360.05 E0.047869
G1 F9000 x137.69 y60.37 z-3.52 u89.95 v-270.04 E0.047869
G1 F2300 E-2.00 ;Filament Retraction!!
G1 F600 x137.7 y60.36 z16.48 u89.95 v-270.04 E0
G1 F600 x152.11 y57.42 z18.75 u-90 v-360.05 E0
G1 F600 x152.11 y57.4 z-1.25 u-90 v-360.05 E0
G1 F2100 E2.21 ;Filament (De)-Retraction!!
G1 F60.972227 x152.11 y57.4 z-1.86 u-90 v-360.05 E0.047869
G1 F9000 x137.69 y59.86 z0.01 u89.95 v-270.04 E0.047869
G1 F59.978851 x137.69 y60.46 z0.01 u89.95 v-270.04 E0.047869
G1 F59.978851 x137.69 y61.06 z0.01 u89.95 v-270.04 E0.047869
G1 F59.978851 x137.69 y61.66 z0.01 u89.95 v-270.04 E0.047869
G1 F60.972227 x137.69 y62.27 z0.01 u89.95 v-270.04 E0.047869
G1 F59.978851 x137.69 y62.87 z0.01 u89.95 v-270.04 E0.047869
G1 F59.978851 x137.69 y63.47 z0.01 u89.95 v-270.04 E0.047869
G1 F59.978851 x137.69 y64.07 z0.01 u89.95 v-270.04 E0.047869
G1 F60.972227 x137.69 y64.68 z0.01 u89.95 v-270.04 E0.047869
G1 F59.978851 x137.69 y65.28 z0.01 u89.95 v-270.04 E0.047869
G1 F59.978851 x137.69 y65.88 z0.01 u89.95 v-270.04 E0.047869
G1 F59.978851 x137.69 y66.48 z0.01 u89.95 v-270.04 E0.047869
G1 F59.978851 x137.69 y67.08 z0.01 u89.95 v-270.04 E0.047869
G1 F60.972227 x137.69 y67.69 z0.01 u89.95 v-270.04 E0.047869
G1 F59.978851 x137.69 y68.29 z0.01 u89.95 v-270.04 E0.047869
G1 F59.978851 x137.69 y68.89 z0.01 u89.95 v-270.04 E0.047869
G1 F59.978851 x137.69 y69.49 z0.01 u89.95 v-270.04 E0.047869
G1 F59.978851 x137.69 y70.09 z0.01 u89.95 v-270.04 E0.047869
G1 F60.972227 x137.69 y70.7 z0.01 u89.95 v-270.04 E0.047869
G1 F59.978851 x137.69 y71.3 z0.01 u89.95 v-270.04 E0.047869
G1 F59.978851 x137.69 y71.9 z0.01 u89.95 v-270.04 E0.047869
G1 F59.978851 x137.69 y72.5 z0.01 u89.95 v-270.04 E0.047869
G1 F60.98037 x137.69 y73.11 z0.02 u89.95 v-270.04 E0.047869
G1 F59.978851 x137.69 y73.71 z0.02 u89.95 v-270.04 E0.047869
G1 F59.978851 x137.69 y74.31 z0.02 u89.95 v-270.04 E0.047869
G1 F59.978851 x137.69 y74.91 z0.02 u89.95 v-270.04 E0.047869
G1 F59.978851 x137.69 y75.51 z0.02 u89.95 v-270.04 E0.047869
G1 F60.972227 x137.69 y76.12 z0.02 u89.95 v-270.04 E0.047869
G1 F59.978851 x137.69 y76.72 z0.02 u89.95 v-270.04 E0.047869
G1 F59.978851 x137.69 y77.32 z0.02 u89.95 v-270.04 E0.047869
G1 F59.978851 x137.69 y77.92 z0.02 u89.95 v-270.04 E0.047869
G1 F59.978851 x137.69 y78.52 z0.02 u89.95 v-270.04 E0.047869
G1 F60.886794 x137.69 y78.72 z0.02 u89.95 v-270.04 E0.015717
G1 F61.01399 x137.69 y78.72 z-0.39 u89.95 v-270.04 E0.032152
G1 F59.978851 x137.69 y78.72 z-0.99 u89.95 v-270.04 E0.047869
G1 F59.978851 x137.69 y78.72 z-1.59 u89.95 v-270.04 E0.047869
G1 F59.978851 x137.69 y78.72 z-2.19 u89.95 v-270.04 E0.047869
G1 F59.978851 x137.69 y78.72 z-2.79 u89.95 v-270.04 E0.047869
G1 F60.972227 x137.69 y78.72 z-3.4 u89.95 v-270.04 E0.047869
G1 F9000 x137.71 y61.42 z21.33 u89.95 v-359.99 E0.047869
G1 F59.978851 x137.71 y62.02 z21.33 u89.95 v-359.99 E0.047869
G1 F60.972227 x137.71 y62.63 z21.33 u89.95 v-359.99 E0.047869
G1 F59.978851 x137.71 y63.23 z21.33 u89.95 v-359.99 E0.047869
G1 F59.978851 x137.71 y63.83 z21.33 u89.95 v-359.99 E0.047869
G1 F59.978851 x137.71 y64.43 z21.33 u89.95 v-359.99 E0.047869
G1 F59.978851 x137.71 y65.03 z21.33 u89.95 v-359.99 E0.047869
G1 F60.972227 x137.71 y65.64 z21.33 u89.95 v-359.99 E0.047869
G1 F59.978851 x137.71 y66.24 z21.33 u89.95 v-359.99 E0.047869
G1 F59.978851 x137.71 y66.84 z21.33 u89.95 v-359.99 E0.047869
G1 F59.978851 x137.71 y67.44 z21.33 u89.95 v-359.99 E0.047869
G1 F59.978851 x137.71 y68.04 z21.33 u89.95 v-359.99 E0.047869
G1 F60.972227 x137.71 y68.65 z21.33 u89.95 v-359.99 E0.047869
G1 F59.978851 x137.71 y69.25 z21.33 u89.95 v-359.99 E0.047869
G1 F59.978851 x137.71 y69.85 z21.33 u89.95 v-359.99 E0.047869
G1 F9000 x137.7 y36.69 z12.47 u89.95 v-449.94 E0.047869
G1 F59.978851 x137.7 y37.29 z12.47 u89.95 v-449.94 E0.047869
G1 F60.972227 x137.7 y37.9 z12.47 u89.95 v-449.94 E0.047869
G1 F59.978851 x137.7 y38.5 z12.47 u89.95 v-449.94 E0.047869
G1 F59.978851 x137.7 y39.1 z12.47 u89.95 v-449.94 E0.047869
G1 F59.978851 x137.7 y39.7 z12.47 u89.95 v-449.94 E0.047869
G1 F60.972227 x137.7 y40.31 z12.47 u89.95 v-449.94 E0.047869
G1 F59.978851 x137.7 y40.91 z12.47 u89.95 v-449.94 E0.047869
G1 F59.978851 x137.7 y41.51 z12.47 u89.95 v-449.94 E0.047869
G1 F59.978851 x137.7 y42.11 z12.47 u89.95 v-449.94 E0.047869
G1 F59.978851 x137.7 y42.71 z12.47 u89.95 v-449.94 E0.047869
G1 F60.972227 x137.7 y43.32 z12.47 u89.95 v-449.94 E0.047869
G1 F59.978851 x137.7 y43.92 z12.47 u89.95 v-449.94 E0.047869
G1 F59.978851 x137.7 y44.52 z12.47 u89.95 v-449.94 E0.047869
G1 F59.987128 x137.7 y45.12 z12.46 u89.95 v-449.94 E0.047869
G1 F59.978851 x137.7 y45.72 z12.46 u89.95 v-449.94 E0.047869
G1 F60.972227 x137.7 y46.33 z12.46 u89.95 v-449.94 E0.047869
G1 F59.978851 x137.7 y46.93 z12.46 u89.95 v-449.94 E0.047869
G1 F59.978851 x137.7 y47.53 z12.46 u89.95 v-449.94 E0.047869
G1 F59.978851 x137.7 y48.13 z12.46 u89.95 v-449.94 E0.047869
G1 F59.978851 x137.7 y48.73 z12.46 u89.95 v-449.94 E0.047869
G1 F60.972227 x137.7 y49.34 z12.46 u89.95 v-449.94 E0.047869
G1 F59.978851 x137.7 y49.94 z12.46 u89.95 v-449.94 E0.047869
G1 F59.978851 x137.7 y50.54 z12.46 u89.95 v-449.94 E0.047869
G1 F59.978851 x137.7 y51.14 z12.46 u89.95 v-449.94 E0.047869
G1 F60.972227 x137.7 y51.75 z12.46 u89.95 v-449.94 E0.047869
G1 F59.978851 x137.7 y52.35 z12.46 u89.95 v-449.94 E0.047869
G1 F59.978851 x137.7 y52.95 z12.46 u89.95 v-449.94 E0.047869
G1 F59.978851 x137.7 y53.55 z12.46 u89.95 v-449.94 E0.047869
G1 F59.978851 x137.7 y54.15 z12.46 u89.95 v-449.94 E0.047869
G1 F9000 x137.69 y44.95 z-2.63 u89.95 v-539.9 E0.047869
G1 F59.978851 x137.69 y44.95 z-2.03 u89.95 v-539.9 E0.047869
G1 F60.972227 x137.69 y44.95 z-1.42 u89.95 v-539.9 E0.047869
G1 F57.861628 x137.69 y44.95 z-1.23 u89.95 v-539.9 E0.015717
G1 F61.01399 x137.69 y45.36 z-1.23 u89.95 v-539.9 E0.032152
G1 F59.978851 x137.69 y45.96 z-1.23 u89.95 v-539.9 E0.047869
G1 F59.978851 x137.69 y46.56 z-1.23 u89.95 v-539.9 E0.047869
G1 F59.978851 x137.69 y47.16 z-1.23 u89.95 v-539.9 E0.047869
G1 F59.978851 x137.69 y47.76 z-1.23 u89.95 v-539.9 E0.047869
G1 F60.972227 x137.69 y48.37 z-1.23 u89.95 v-539.9 E0.047869
G1 F59.978851 x137.69 y48.97 z-1.23 u89.95 v-539.9 E0.047869
G1 F59.978851 x137.69 y49.57 z-1.23 u89.95 v-539.9 E0.047869
G1 F59.987128 x137.69 y50.17 z-1.24 u89.95 v-539.9 E0.047869
G1 F59.978851 x137.69 y50.77 z-1.24 u89.95 v-539.9 E0.047869
G1 F60.972227 x137.69 y51.38 z-1.24 u89.95 v-539.9 E0.047869
G1 F59.978851 x137.69 y51.98 z-1.24 u89.95 v-539.9 E0.047869
G1 F59.978851 x137.69 y52.58 z-1.24 u89.95 v-539.9 E0.047869
G1 F59.978851 x137.69 y53.18 z-1.24 u89.95 v-539.9 E0.047869
G1 F60.972227 x137.69 y53.79 z-1.24 u89.95 v-539.9 E0.047869
G1 F59.978851 x137.69 y54.39 z-1.24 u89.95 v-539.9 E0.047869
G1 F59.978851 x137.69 y54.99 z-1.24 u89.95 v-539.9 E0.047869
G1 F59.987128 x137.69 y55.59 z-1.25 u89.95 v-539.9 E0.047869
G1 F59.978851 x137.69 y56.19 z-1.25 u89.95 v-539.9 E0.047869
G1 F60.972227 x137.69 y56.8 z-1.25 u89.95 v-539.9 E0.047869
G1 F2300 E-2.00 ;Filament Retraction!!
G1 F600 x137.7 y56.83 z18.75 u89.95 v-539.9 E0
G1 F600 x137.71 y63.29 z22.18 u89.95 v-539.9 E0
G1 F600 x137.69 y63.26 z2.18 u89.95 v-539.9 E0
G1 F2100 E2.21 ;Filament (De)-Retraction!!
G1 F59.978851 x137.69 y63.26 z1.58 u89.95 v-539.9 E0.047869
G1 F59.978851 x137.69 y63.26 z0.98 u89.95 v-539.9 E0.047869
G1 F60.972227 x137.69 y63.26 z0.37 u89.95 v-539.9 E0.047869
G1 F59.987128 x137.69 y63.25 z-0.23 u89.95 v-539.9 E0.047869
G1 F59.978851 x137.69 y63.25 z-0.83 u89.95 v-539.9 E0.047869
G1 F59.978851 x137.69 y63.25 z-1.43 u89.95 v-539.9 E0.047869
G1 F59.978851 x137.69 y63.25 z-2.03 u89.95 v-539.9 E0.047869
G1 F9000 x152.11 y54.77 z5.85 u-90 v-450 E0.047869
G1 F59.978851 x152.11 y54.17 z5.85 u-90 v-450 E0.047869
G1 F60.972227 x152.11 y53.56 z5.85 u-90 v-450 E0.047869
G1 F59.978851 x152.11 y52.96 z5.85 u-90 v-450 E0.047869
G1 F59.978851 x152.11 y52.36 z5.85 u-90 v-450 E0.047869
G1 F59.978851 x152.11 y51.76 z5.85 u-90 v-450 E0.047869
G1 F59.978851 x152.11 y51.16 z5.85 u-90 v-450 E0.047869
G1 F60.972227 x152.11 y50.55 z5.85 u-90 v-450 E0.047869
G1 F59.978851 x152.11 y49.95 z5.85 u-90 v-450 E0.047869
G1 F59.978851 x152.11 y49.35 z5.85 u-90 v-450 E0.047869
G1 F59.978851 x152.11 y48.75 z5.85 u-90 v-450 E0.047869
G1 F59.978851 x152.11 y48.15 z5.85 u-90 v-450 E0.047869
G1 F60.972227 x152.11 y47.54 z5.85 u-90 v-450 E0.047869
G1 F59.978851 x152.11 y46.94 z5.85 u-90 v-450 E0.047869
G1 F59.978851 x152.11 y46.34 z5.85 u-90 v-450 E0.047869
G1 F59.978851 x152.11 y45.74 z5.85 u-90 v-450 E0.047869
G1 F60.972227 x152.11 y45.13 z5.85 u-90 v-450 E0.047869
G1 F59.978851 x152.11 y44.53 z5.85 u-90 v-450 E0.047869
G1 F59.978851 x152.11 y43.93 z5.85 u-90 v-450 E0.047869
G1 F59.978851 x152.11 y43.33 z5.85 u-90 v-450 E0.047869
G1 F59.978851 x152.11 y42.73 z5.85 u-90 v-450 E0.047869
G1 F60.972227 x152.11 y42.12 z5.85 u-90 v-450 E0.047869
G1 F59.978851 x152.11 y41.52 z5.85 u-90 v-450 E0.047869
G1 F59.978851 x152.11 y40.92 z5.85 u-90 v-450 E0.047869
G1 F59.978851 x152.11 y40.32 z5.85 u-90 v-450 E0.047869
G1 F59.978851 x152.11 y39.72 z5.85 u-90 v-450 E0.047869
G1 F60.886794 x152.11 y39.52 z5.85 u-90 v-450 E0.015717
G1 F59.535052 x152.11 y39.52 z5.45 u-90 v-450 E0.032152
G1 F59.978851 x152.11 y39.52 z4.85 u-90 v-450 E0.047869
G1 F59.978851 x152.11 y39.52 z4.25 u-90 v-450 E0.047869
G1 F60.972227 x152.11 y39.52 z3.64 u-90 v-450 E0.047869
G1 F59.978851 x152.11 y39.52 z3.04 u-90 v-450 E0.047869
G1 F59.978851 x152.11 y39.52 z2.44 u-90 v-450 E0.047869
G1 F59.978851 x152.11 y39.52 z1.84 u-90 v-450 E0.047869
G1 F59.978851 x152.11 y39.52 z1.24 u-90 v-450 E0.047869
G1 F60.972227 x152.11 y39.52 z0.63 u-90 v-450 E0.047869
G1 F59.978851 x152.11 y39.52 z0.03 u-90 v-450 E0.047869
G1 F59.978851 x152.11 y39.52 z-0.57 u-90 v-450 E0.047869
G1 F59.978851 x152.11 y39.52 z-1.17 u-90 v-450 E0.047869
G1 F60.972227 x152.11 y39.52 z-1.78 u-90 v-450 E0.047869
G1 F59.978851 x152.11 y39.52 z-2.38 u-90 v-450 E0.047869
G1 F59.978851 x152.11 y39.52 z-2.98 u-90 v-450 E0.047869
G1 F59.978851 x152.11 y39.52 z-3.58 u-90 v-450 E0.047869
G1 F59.978851 x152.11 y39.52 z-4.18 u-90 v-450 E0.047869
G1 F60.972227 x152.11 y39.52 z-4.79 u-90 v-450 E0.047869
G1 F59.978851 x152.11 y39.52 z-5.39 u-90 v-450 E0.047869
G1 F59.978851 x152.11 y39.52 z-5.99 u-90 v-450 E0.047869
G1 F59.978851 x152.11 y39.52 z-6.59 u-90 v-450 E0.047869
G1 F59.978851 x152.11 y40.12 z-6.59 u-90 v-450 E0.047869
G1 F59.978851 x152.11 y40.72 z-6.59 u-90 v-450 E0.047869
G1 F59.978851 x152.11 y41.32 z-6.59 u-90 v-450 E0.047869
G1 F60.972227 x152.11 y41.93 z-6.59 u-90 v-450 E0.047869
G1 F59.978851 x152.11 y42.53 z-6.59 u-90 v-450 E0.047869
G1 F59.978851 x152.11 y43.13 z-6.59 u-90 v-450 E0.047869
G1 F59.978851 x152.11 y43.73 z-6.59 u-90 v-450 E0.047869
G1 F59.978851 x152.11 y44.33 z-6.59 u-90 v-450 E0.047869
G1 F60.972227 x152.11 y44.94 z-6.59 u-90 v-450 E0.047869
G1 F59.978851 x152.11 y45.54 z-6.59 u-90 v-450 E0.047869
G1 F59.978851 x152.11 y46.14 z-6.59 u-90 v-450 E0.047869
G1 F59.978851 x152.11 y46.74 z-6.59 u-90 v-450 E0.047869
G1 F60.972227 x152.11 y47.35 z-6.59 u-90 v-450 E0.047869
G1 F59.978851 x152.11 y47.95 z-6.59 u-90 v-450 E0.047869
G1 F59.978851 x152.11 y48.55 z-6.59 u-90 v-450 E0.047869
G1 F59.978851 x152.11 y49.15 z-6.59 u-90 v-450 E0.047869
G1 F59.978851 x152.11 y49.75 z-6.59 u-90 v-450 E0.047869
G1 F60.972227 x152.11 y50.36 z-6.59 u-90 v-450 E0.047869
G1 F59.978851 x152.11 y50.96 z-6.59 u-90 v-450 E0.047869
G1 F59.978851 x152.11 y51.56 z-6.59 u-90 v-450 E0.047869
G1 F9000 x137.68 y50.8 z-5.22 u89.95 v-539.9 E0.047869
G1 F59.978851 x137.68 y50.8 z-4.62 u89.95 v-539.9 E0.047869
G1 F59.987128 x137.69 y50.8 z-4.02 u89.95 v-539.9 E0.047869
G1 F60.972227 x137.69 y50.8 z-3.41 u89.95 v-539.9 E0.047869
G1 F59.978851 x137.69 y50.8 z-2.81 u89.95 v-539.9 E0.047869
G1 F59.978851 x137.69 y50.8 z-2.21 u89.95 v-539.9 E0.047869
G1 F59.978851 x137.69 y50.8 z-1.61 u89.95 v-539.9 E0.047869
G1 F59.987128 x137.69 y50.81 z-1.01 u89.95 v-539.9 E0.047869
G1 F60.972227 x137.69 y50.81 z-0.4 u89.95 v-539.9 E0.047869
G1 F59.978851 x137.69 y50.81 z0.2 u89.95 v-539.9 E0.047869
G1 F59.978851 x137.69 y50.81 z0.8 u89.95 v-539.9 E0.047869
G1 F59.978851 x137.69 y50.81 z1.4 u89.95 v-539.9 E0.047869
G1 F60.972227 x137.69 y50.81 z2.01 u89.95 v-539.9 E0.047869
G1 F57.861628 x137.69 y50.81 z2.2 u89.95 v-539.9 E0.015717
G1 F61.01399 x137.69 y51.22 z2.2 u89.95 v-539.9 E0.032152
G1 F59.978851 x137.69 y51.82 z2.2 u89.95 v-539.9 E0.047869
G1 F59.978851 x137.69 y52.42 z2.2 u89.95 v-539.9 E0.047869
G1 F59.978851 x137.69 y53.02 z2.2 u89.95 v-539.9 E0.047869
G1 F59.978851 x137.69 y53.62 z2.2 u89.95 v-539.9 E0.047869
G1 F60.972227 x137.69 y54.23 z2.2 u89.95 v-539.9 E0.047869
G1 F59.978851 x137.69 y54.83 z2.2 u89.95 v-539.9 E0.047869
G1 F59.987128 x137.69 y55.43 z2.19 u89.95 v-539.9 E0.047869
G1 F59.978851 x137.69 y56.03 z2.19 u89.95 v-539.9 E0.047869
G1 F60.972227 x137.69 y56.64 z2.19 u89.95 v-539.9 E0.047869
G1 F59.978851 x137.69 y57.24 z2.19 u89.95 v-539.9 E0.047869
G1 F59.978851 x137.69 y57.84 z2.19 u89.95 v-539.9 E0.047869
G1 F59.978851 x137.69 y58.44 z2.19 u89.95 v-539.9 E0.047869
G1 F59.978851 x137.69 y59.04 z2.19 u89.95 v-539.9 E0.047869
G1 F60.972227 x137.69 y59.65 z2.19 u89.95 v-539.9 E0.047869
G1 F59.978851 x137.69 y60.25 z2.19 u89.95 v-539.9 E0.047869
G1 F59.978851 x137.69 y60.85 z2.19 u89.95 v-539.9 E0.047869
G1 F59.987128 x137.69 y61.45 z2.18 u89.95 v-539.9 E0.047869
G1 F59.978851 x137.69 y62.05 z2.18 u89.95 v-539.9 E0.047869
G1 F60.972227 x137.69 y62.66 z2.18 u89.95 v-539.9 E0.047869
G1 F2300 E-2.00 ;Filament Retraction!!
G1 F600 x137.71 y62.69 z22.18 u89.95 v-539.9 E0
G1 F600 x137.71 y70.05 z26.37 u89.95 v-539.9 E0
G1 F600 x137.69 y70.01 z6.37 u89.95 v-539.9 E0
G1 F2100 E2.21 ;Filament (De)-Retraction!!
G1 F59.978851 x137.69 y70.01 z5.77 u89.95 v-539.9 E0.047869
G1 F59.978851 x137.69 y70.01 z5.17 u89.95 v-539.9 E0.047869
G1 F59.978851 x137.69 y70.01 z4.57 u89.95 v-539.9 E0.047869
G1 F59.978851 x137.69 y70.01 z3.97 u89.95 v-539.9 E0.047869
G1 F60.972227 x137.69 y70.01 z3.36 u89.95 v-539.9 E0.047869
G1 F59.978851 x137.69 y70.01 z2.76 u89.95 v-539.9 E0.047869
G1 F59.978851 x137.69 y70.01 z2.16 u89.95 v-539.9 E0.047869
G1 F59.978851 x137.69 y70.01 z1.56 u89.95 v-539.9 E0.047869
G1 F60.98037 x137.69 y70 z0.95 u89.95 v-539.9 E0.047869
G1 F59.978851 x137.69 y70 z0.35 u89.95 v-539.9 E0.047869
G1 F59.978851 x137.69 y70 z-0.25 u89.95 v-539.9 E0.047869
G1 F59.978851 x137.69 y70 z-0.85 u89.95 v-539.9 E0.047869
G1 F59.978851 x137.69 y70 z-1.45 u89.95 v-539.9 E0.047869
G1 F60.972227 x137.69 y70 z-2.06 u89.95 v-539.9 E0.047869
G1 F9000 x152.11 y54.76 z12.6 u-90 v-450 E0.047869
G1 F59.978851 x152.11 y54.16 z12.6 u-90 v-450 E0.047869
G1 F60.972227 x152.11 y53.55 z12.6 u-90 v-450 E0.047869
G1 F59.978851 x152.11 y52.95 z12.6 u-90 v-450 E0.047869
G1 F59.978851 x152.11 y52.35 z12.6 u-90 v-450 E0.047869
G1 F59.978851 x152.11 y51.75 z12.6 u-90 v-450 E0.047869
G1 F59.978851 x152.11 y51.15 z12.6 u-90 v-450 E0.047869
G1 F60.972227 x152.11 y50.54 z12.6 u-90 v-450 E0.047869
G1 F59.978851 x152.11 y49.94 z12.6 u-90 v-450 E0.047869
G1 F59.978851 x152.11 y49.34 z12.6 u-90 v-450 E0.047869
G1 F59.978851 x152.11 y48.74 z12.6 u-90 v-450 E0.047869
G1 F59.978851 x152.11 y48.14 z12.6 u-90 v-450 E0.047869
G1 F60.972227 x152.11 y47.53 z12.6 u-90 v-450 E0.047869
G1 F59.978851 x152.11 y46.93 z12.6 u-90 v-450 E0.047869
G1 F59.978851 x152.11 y46.33 z12.6 u-90 v-450 E0.047869
G1 F59.978851 x152.11 y45.73 z12.6 u-90 v-450 E0.047869
G1 F60.972227 x152.11 y45.12 z12.6 u-90 v-450 E0.047869
G1 F59.978851 x152.11 y44.52 z12.6 u-90 v-450 E0.047869
G1 F59.978851 x152.11 y43.92 z12.6 u-90 v-450 E0.047869
G1 F60.886794 x152.11 y43.72 z12.6 u-90 v-450 E0.015717
G1 F59.535052 x152.11 y43.72 z12.2 u-90 v-450 E0.032152
G1 F59.978851 x152.11 y43.72 z11.6 u-90 v-450 E0.047869
G1 F60.972227 x152.11 y43.72 z10.99 u-90 v-450 E0.047869
G1 F59.978851 x152.11 y43.72 z10.39 u-90 v-450 E0.047869
G1 F59.978851 x152.11 y43.72 z9.79 u-90 v-450 E0.047869
G1 F59.978851 x152.11 y43.72 z9.19 u-90 v-450 E0.047869
G1 F59.978851 x152.11 y43.72 z8.59 u-90 v-450 E0.047869
G1 F60.972227 x152.11 y43.72 z7.98 u-90 v-450 E0.047869
G1 F59.978851 x152.11 y43.72 z7.38 u-90 v-450 E0.047869
G1 F59.978851 x152.11 y43.72 z6.78 u-90 v-450 E0.047869
G1 F59.978851 x152.11 y43.72 z6.18 u-90 v-450 E0.047869
G1 F60.972227 x152.11 y43.72 z5.57 u-90 v-450 E0.047869
G1 F59.978851 x152.11 y43.72 z4.97 u-90 v-450 E0.047869
G1 F59.978851 x152.11 y43.72 z4.37 u-90 v-450 E0.047869
G1 F59.978851 x152.11 y43.72 z3.77 u-90 v-450 E0.047869
G1 F59.978851 x152.11 y43.72 z3.17 u-90 v-450 E0.047869
G1 F60.972227 x152.11 y43.72 z2.56 u-90 v-450 E0.047869
G1 F59.978851 x152.11 y43.72 z1.96 u-90 v-450 E0.047869
G1 F59.978851 x152.11 y43.72 z1.36 u-90 v-450 E0.047869
G1 F59.978851 x152.11 y43.72 z0.76 u-90 v-450 E0.047869
G1 F59.978851 x152.11 y43.72 z0.16 u-90 v-450 E0.047869
G1 F59.978851 x152.11 y44.32 z0.16 u-90 v-450 E0.047869
G1 F60.972227 x152.11 y44.93 z0.16 u-90 v-450 E0.047869
G1 F59.978851 x152.11 y45.53 z0.16 u-90 v-450 E0.047869
G1 F59.978851 x152.11 y46.13 z0.16 u-90 v-450 E0.047869
G1 F59.978851 x152.11 y46.73 z0.16 u-90 v-450 E0.047869
G1 F60.972227 x152.11 y47.34 z0.16 u-90 v-450 E0.047869
G1 F59.978851 x152.11 y47.94 z0.16 u-90 v-450 E0.047869
G1 F59.978851 x152.11 y48.54 z0.16 u-90 v-450 E0.047869
G1 F59.978851 x152.11 y49.14 z0.16 u-90 v-450 E0.047869
G1 F59.978851 x152.11 y49.74 z0.16 u-90 v-450 E0.047869
G1 F60.972227 x152.11 y50.35 z0.16 u-90 v-450 E0.047869
G1 F59.978851 x152.11 y50.95 z0.16 u-90 v-450 E0.047869
G1 F59.978851 x152.11 y51.55 z0.16 u-90 v-450 E0.047869
G1 F59.978851 x152.11 y52.15 z0.16 u-90 v-450 E0.047869
G1 F59.978851 x152.11 y52.75 z0.16 u-90 v-450 E0.047869
G1 F60.972227 x152.11 y53.36 z0.16 u-90 v-450 E0.047869
G1 F59.978851 x152.11 y53.96 z0.16 u-90 v-450 E0.047869
G1 F59.978851 x152.11 y54.56 z0.16 u-90 v-450 E0.047869
G1 F9000 x137.69 y57.55 z-2.23 u89.95 v-539.9 E0.047869
G1 F59.978851 x137.69 y57.55 z-1.63 u89.95 v-539.9 E0.047869
G1 F59.978851 x137.69 y57.55 z-1.03 u89.95 v-539.9 E0.047869
G1 F59.978851 x137.69 y57.55 z-0.43 u89.95 v-539.9 E0.047869
G1 F60.98037 x137.69 y57.56 z0.18 u89.95 v-539.9 E0.047869
G1 F59.978851 x137.69 y57.56 z0.78 u89.95 v-539.9 E0.047869
G1 F59.978851 x137.69 y57.56 z1.38 u89.95 v-539.9 E0.047869
G1 F59.978851 x137.69 y57.56 z1.98 u89.95 v-539.9 E0.047869
G1 F60.972227 x137.69 y57.56 z2.59 u89.95 v-539.9 E0.047869
G1 F59.978851 x137.69 y57.56 z3.19 u89.95 v-539.9 E0.047869
G1 F59.978851 x137.69 y57.56 z3.79 u89.95 v-539.9 E0.047869
G1 F59.978851 x137.69 y57.56 z4.39 u89.95 v-539.9 E0.047869
G1 F59.978851 x137.69 y57.56 z4.99 u89.95 v-539.9 E0.047869
G1 F60.98037 x137.69 y57.57 z5.6 u89.95 v-539.9 E0.047869
G1 F59.978851 x137.69 y57.57 z6.2 u89.95 v-539.9 E0.047869
G1 F60.886794 x137.69 y57.57 z6.4 u89.95 v-539.9 E0.015717
G1 F59.535052 x137.69 y57.97 z6.4 u89.95 v-539.9 E0.032152
G1 F59.987128 x137.69 y58.57 z6.39 u89.95 v-539.9 E0.047869
G1 F60.972227 x137.69 y59.18 z6.39 u89.95 v-539.9 E0.047869
G1 F59.978851 x137.69 y59.78 z6.39 u89.95 v-539.9 E0.047869
G1 F59.978851 x137.69 y60.38 z6.39 u89.95 v-539.9 E0.047869
G1 F59.978851 x137.69 y60.98 z6.39 u89.95 v-539.9 E0.047869
G1 F59.978851 x137.69 y61.58 z6.39 u89.95 v-539.9 E0.047869
G1 F60.972227 x137.69 y62.19 z6.39 u89.95 v-539.9 E0.047869
G1 F59.978851 x137.69 y62.79 z6.39 u89.95 v-539.9 E0.047869
G1 F59.978851 x137.69 y63.39 z6.39 u89.95 v-539.9 E0.047869
G1 F59.987128 x137.69 y63.99 z6.38 u89.95 v-539.9 E0.047869
G1 F59.978851 x137.69 y64.59 z6.38 u89.95 v-539.9 E0.047869
G1 F60.972227 x137.69 y65.2 z6.38 u89.95 v-539.9 E0.047869
G1 F59.978851 x137.69 y65.8 z6.38 u89.95 v-539.9 E0.047869
G1 F59.978851 x137.69 y66.4 z6.38 u89.95 v-539.9 E0.047869
G1 F59.978851 x137.69 y67 z6.38 u89.95 v-539.9 E0.047869
G1 F60.972227 x137.69 y67.61 z6.38 u89.95 v-539.9 E0.047869
G1 F59.978851 x137.69 y68.21 z6.38 u89.95 v-539.9 E0.047869
G1 F59.978851 x137.69 y68.81 z6.38 u89.95 v-539.9 E0.047869
G1 F59.987128 x137.69 y69.41 z6.37 u89.95 v-539.9 E0.047869
G1 F2300 E-2.00 ;Filament Retraction!!
G1 F600 x137.71 y69.45 z26.37 u89.95 v-539.9 E0
G1 F600 x137.71 y78.33 z31.5 u89.95 v-539.9 E0
G1 F600 x137.7 y78.29 z11.5 u89.95 v-539.9 E0
G1 F2100 E2.21 ;Filament (De)-Retraction!!
G1 F59.978851 x137.7 y78.29 z10.9 u89.95 v-539.9 E0.047869
G1 F59.978851 x137.7 y78.29 z10.3 u89.95 v-539.9 E0.047869
G1 F60.972227 x137.7 y78.29 z9.69 u89.95 v-539.9 E0.047869
G1 F59.978851 x137.7 y78.29 z9.09 u89.95 v-539.9 E0.047869
G1 F59.987128 x137.69 y78.29 z8.49 u89.95 v-539.9 E0.047869
G1 F59.978851 x137.69 y78.29 z7.89 u89.95 v-539.9 E0.047869
G1 F60.98037 x137.69 y78.28 z7.28 u89.95 v-539.9 E0.047869
G1 F59.978851 x137.69 y78.28 z6.68 u89.95 v-539.9 E0.047869
G1 F59.978851 x137.69 y78.28 z6.08 u89.95 v-539.9 E0.047869
G1 F59.978851 x137.69 y78.28 z5.48 u89.95 v-539.9 E0.047869
G1 F59.978851 x137.69 y78.28 z4.88 u89.95 v-539.9 E0.047869
G1 F60.972227 x137.69 y78.28 z4.27 u89.95 v-539.9 E0.047869
G1 F59.978851 x137.69 y78.28 z3.67 u89.95 v-539.9 E0.047869
G1 F59.978851 x137.69 y78.28 z3.07 u89.95 v-539.9 E0.047869
G1 F59.978851 x137.69 y78.28 z2.47 u89.95 v-539.9 E0.047869
G1 F59.978851 x137.69 y78.28 z1.87 u89.95 v-539.9 E0.047869
G1 F60.98037 x137.69 y78.27 z1.26 u89.95 v-539.9 E0.047869
G1 F59.978851 x137.69 y78.27 z0.66 u89.95 v-539.9 E0.047869
G1 F59.978851 x137.69 y78.27 z0.06 u89.95 v-539.9 E0.047869
G1 F59.978851 x137.69 y78.27 z-0.54 u89.95 v-539.9 E0.047869
G1 F59.978851 x137.69 y78.27 z-1.14 u89.95 v-539.9 E0.047869
G1 F60.972227 x137.69 y78.27 z-1.75 u89.95 v-539.9 E0.047869
G1 F9000 x152.11 y55.08 z20.87 u-90 v-450 E0.047869
G1 F59.978851 x152.11 y54.48 z20.87 u-90 v-450 E0.047869
G1 F59.978851 x152.11 y53.88 z20.87 u-90 v-450 E0.047869
G1 F59.978851 x152.11 y53.28 z20.87 u-90 v-450 E0.047869
G1 F60.972227 x152.11 y52.67 z20.87 u-90 v-450 E0.047869
G1 F59.978851 x152.11 y52.07 z20.87 u-90 v-450 E0.047869
G1 F59.978851 x152.11 y51.47 z20.87 u-90 v-450 E0.047869
G1 F59.978851 x152.11 y50.87 z20.87 u-90 v-450 E0.047869
G1 F59.978851 x152.11 y50.27 z20.87 u-90 v-450 E0.047869
G1 F60.972227 x152.11 y49.66 z20.87 u-90 v-450 E0.047869
G1 F59.978851 x152.11 y49.06 z20.87 u-90 v-450 E0.047869
G1 F60.886794 x152.11 y48.86 z20.87 u-90 v-450 E0.015717
G1 F59.535052 x152.11 y48.86 z20.47 u-90 v-450 E0.032152
G1 F59.978851 x152.11 y48.86 z19.87 u-90 v-450 E0.047869
G1 F60.972227 x152.11 y48.86 z19.26 u-90 v-450 E0.047869
G1 F59.978851 x152.11 y48.86 z18.66 u-90 v-450 E0.047869
G1 F59.978851 x152.11 y48.86 z18.06 u-90 v-450 E0.047869
G1 F59.978851 x152.11 y48.86 z17.46 u-90 v-450 E0.047869
G1 F60.972227 x152.11 y48.86 z16.85 u-90 v-450 E0.047869
G1 F59.978851 x152.11 y48.86 z16.25 u-90 v-450 E0.047869
G1 F59.978851 x152.11 y48.86 z15.65 u-90 v-450 E0.047869
G1 F59.978851 x152.11 y48.86 z15.05 u-90 v-450 E0.047869
G1 F59.978851 x152.11 y48.86 z14.45 u-90 v-450 E0.047869
G1 F60.972227 x152.11 y48.86 z13.84 u-90 v-450 E0.047869
G1 F59.978851 x152.11 y48.86 z13.24 u-90 v-450 E0.047869
G1 F59.978851 x152.11 y48.86 z12.64 u-90 v-450 E0.047869
G1 F59.978851 x152.11 y48.86 z12.04 u-90 v-450 E0.047869
G1 F59.978851 x152.11 y48.86 z11.44 u-90 v-450 E0.047869
G1 F60.972227 x152.11 y48.86 z10.83 u-90 v-450 E0.047869
G1 F59.978851 x152.11 y48.86 z10.23 u-90 v-450 E0.047869
G1 F59.978851 x152.11 y48.86 z9.63 u-90 v-450 E0.047869
G1 F59.978851 x152.11 y48.86 z9.03 u-90 v-450 E0.047869
G1 F59.978851 x152.11 y48.86 z8.43 u-90 v-450 E0.047869
G1 F60.972227 x152.11 y49.47 z8.43 u-90 v-450 E0.047869
G1 F59.978851 x152.11 y50.07 z8.43 u-90 v-450 E0.047869
G1 F59.978851 x152.11 y50.67 z8.43 u-90 v-450 E0.047869
G1 F59.978851 x152.11 y51.27 z8.43 u-90 v-450 E0.047869
G1 F59.978851 x152.11 y51.87 z8.43 u-90 v-450 E0.047869
G1 F60.972227 x152.11 y52.48 z8.43 u-90 v-450 E0.047869
G1 F59.978851 x152.11 y53.08 z8.43 u-90 v-450 E0.047869
G1 F59.978851 x152.11 y53.68 z8.43 u-90 v-450 E0.047869
G1 F59.978851 x152.11 y54.28 z8.43 u-90 v-450 E0.047869
G1 F59.978851 x152.11 y54.88 z8.43 u-90 v-450 E0.047869
G1 F9000 x137.69 y65.82 z-1.92 u89.95 v-539.9 E0.047869
G1 F59.978851 x137.69 y65.82 z-1.32 u89.95 v-539.9 E0.047869
G1 F59.978851 x137.69 y65.82 z-0.72 u89.95 v-539.9 E0.047869
G1 F59.978851 x137.69 y65.82 z-0.12 u89.95 v-539.9 E0.047869
G1 F60.98037 x137.69 y65.83 z0.49 u89.95 v-539.9 E0.047869
G1 F59.978851 x137.69 y65.83 z1.09 u89.95 v-539.9 E0.047869
G1 F59.978851 x137.69 y65.83 z1.69 u89.95 v-539.9 E0.047869
G1 F59.978851 x137.69 y65.83 z2.29 u89.95 v-539.9 E0.047869
G1 F59.978851 x137.69 y65.83 z2.89 u89.95 v-539.9 E0.047869
G1 F60.972227 x137.69 y65.83 z3.5 u89.95 v-539.9 E0.047869
G1 F59.978851 x137.69 y65.83 z4.1 u89.95 v-539.9 E0.047869
G1 F59.978851 x137.69 y65.83 z4.7 u89.95 v-539.9 E0.047869
G1 F59.978851 x137.69 y65.83 z5.3 u89.95 v-539.9 E0.047869
G1 F59.987128 x137.69 y65.84 z5.9 u89.95 v-539.9 E0.047869
G1 F60.972227 x137.69 y65.84 z6.51 u89.95 v-539.9 E0.047869
G1 F59.978851 x137.69 y65.84 z7.11 u89.95 v-539.9 E0.047869
G1 F59.978851 x137.69 y65.84 z7.71 u89.95 v-539.9 E0.047869
G1 F59.978851 x137.69 y65.84 z8.31 u89.95 v-539.9 E0.047869
G1 F60.98037 x137.7 y65.84 z8.92 u89.95 v-539.9 E0.047869
G1 F59.978851 x137.7 y65.84 z9.52 u89.95 v-539.9 E0.047869
G1 F59.978851 x137.7 y65.84 z10.12 u89.95 v-539.9 E0.047869
G1 F59.978851 x137.7 y65.84 z10.72 u89.95 v-539.9 E0.047869
G1 F59.987128 x137.7 y65.85 z11.32 u89.95 v-539.9 E0.047869
G1 F60.886794 x137.7 y65.85 z11.52 u89.95 v-539.9 E0.015717
G1 F59.535052 x137.7 y66.25 z11.52 u89.95 v-539.9 E0.032152
G1 F59.978851 x137.7 y66.85 z11.52 u89.95 v-539.9 E0.047869
G1 F59.978851 x137.7 y67.45 z11.52 u89.95 v-539.9 E0.047869
G1 F60.972227 x137.7 y68.06 z11.52 u89.95 v-539.9 E0.047869
G1 F59.978851 x137.7 y68.66 z11.52 u89.95 v-539.9 E0.047869
G1 F59.978851 x137.7 y69.26 z11.52 u89.95 v-539.9 E0.047869
G1 F59.987128 x137.7 y69.86 z11.51 u89.95 v-539.9 E0.047869
G1 F59.978851 x137.7 y70.46 z11.51 u89.95 v-539.9 E0.047869
G1 F60.972227 x137.7 y71.07 z11.51 u89.95 v-539.9 E0.047869
G1 F59.978851 x137.7 y71.67 z11.51 u89.95 v-539.9 E0.047869
G1 F59.978851 x137.7 y72.27 z11.51 u89.95 v-539.9 E0.047869
G1 F59.978851 x137.7 y72.87 z11.51 u89.95 v-539.9 E0.047869
G1 F60.972227 x137.7 y73.48 z11.51 u89.95 v-539.9 E0.047869
G1 F59.978851 x137.7 y74.08 z11.51 u89.95 v-539.9 E0.047869
G1 F59.978851 x137.7 y74.68 z11.51 u89.95 v-539.9 E0.047869
G1 F59.987128 x137.7 y75.28 z11.5 u89.95 v-539.9 E0.047869
G1 F59.978851 x137.7 y75.88 z11.5 u89.95 v-539.9 E0.047869
G1 F60.972227 x137.7 y76.49 z11.5 u89.95 v-539.9 E0.047869
G1 F59.978851 x137.7 y77.09 z11.5 u89.95 v-539.9 E0.047869
G1 F59.978851 x137.7 y77.69 z11.5 u89.95 v-539.9 E0.047869
G1 F600 x137.71 y77.73 z31.5 u89.95 v-539.9 E0
; END G-CODE
G1 E-1
M104 S0 ; turn off temperature
G0 Z100 ; move the head up

T-1 ; Drop the head

